; generated by SuperSlicer 2.3.57 on 2022-07-23 at 07:51:51 UTC


;
;

;
;
; 

; external perimeters extrusion width = 0.45mm
; perimeters extrusion width = 0.45mm
; infill extrusion width = 0.60mm
; solid infill extrusion width = 0.50mm
; top infill extrusion width = 0.40mm
; first layer extrusion width = 0.55mm


M140 S110 ; set bed temperature
M104 S245 ; set temperature
;TYPE:Custom
print_start EXT_TEMP=245 BED_TEMP=110
M107
G21 ; set units to millimeters
G90 ; use absolute coordinates
M82 ; use absolute distances for extrusion
G92 E0
; 2021-09-23: 255C, 0.92 ext, Galaxy Black on Dragon HF w/0.4 nozzle and 0.45 width and 0.3mm layers; cube with 0.002 factor yielded 0.064 best setting (.06 --> .07 OK range)
; at 240C: 0.06
; at 255C: 0.064
; at 270C: 0.044

;2022-03-20  After nozzle change: 0.4 E3D nozzle @ 235C, 80 mm/s: 0.054 --> 0.06
;SET_PRESSURE_ADVANCE ADVANCE=0.06
; Still seems too much.  Testing a bit less.
SET_PRESSURE_ADVANCE ADVANCE=0.04
M109 S245 ; set temperature and wait for it to be reached
M190 S110 ; set bed temperature and wait for it to be reached
M107
;LAYER_CHANGE
;Z:0.24
;HEIGHT:0.24
G1 Z0.24 F12000
G1 E-1.25 F1800
M204 P2000
G1 Z0.38 F12000
G1 X82.5 Y164.675
G1 Z0.24
G1 E0 F1800
;TYPE:External perimeter
;WIDTH:0.55
G1 F2400
G1 X82.087 Y164.668 E0.01889
G1 X81.668 Y164.662 E0.03808
G1 X79.997 Y164.636 E0.11454
G1 X79.585 Y164.616 E0.13342
G1 X79.166 Y164.596 E0.15261
G1 X78.747 Y164.577 E0.17181
G1 X78.328 Y164.557 E0.191
G1 X77.909 Y164.537 E0.21019
G1 X77.497 Y164.518 E0.22908
G1 X77.086 Y164.485 E0.24796
G1 X76.668 Y164.452 E0.26715
G1 X76.25 Y164.42 E0.28634
G1 X75.831 Y164.387 E0.30554
G1 X75.413 Y164.354 E0.32473
G1 X75.002 Y164.321 E0.34361
G1 X74.592 Y164.276 E0.3625
G1 X74.175 Y164.23 E0.38169
G1 X73.758 Y164.184 E0.40088
G1 X73.341 Y164.138 E0.42007
G1 X72.924 Y164.092 E0.43926
G1 X72.514 Y164.047 E0.45815
G1 X72.106 Y163.989 E0.47704
G1 X71.275 Y163.87 E0.51542
G1 X70.86 Y163.811 E0.53461
G1 X70.445 Y163.752 E0.5538
G1 X70.036 Y163.694 E0.57269
G1 X69.63 Y163.623 E0.59157
G1 X69.216 Y163.551 E0.61076
G1 X68.803 Y163.479 E0.62996
G1 X67.977 Y163.335 E0.66834
G1 X67.57 Y163.264 E0.68723
G1 X67.166 Y163.18 E0.70611
G1 X66.756 Y163.095 E0.7253
G1 X65.119 Y162.756 E0.80176
G1 X64.31 Y162.562 E0.83984
G1 X63.903 Y162.464 E0.85903
G1 X63.087 Y162.268 E0.89742
G1 X62.686 Y162.172 E0.9163
G1 X62.288 Y162.063 E0.93519
G1 X61.883 Y161.952 E0.95438
G1 X61.479 Y161.842 E0.97357
G1 X61.074 Y161.731 E0.99276
G1 X60.669 Y161.62 E1.01195
G1 X60.271 Y161.511 E1.03084
G1 X59.877 Y161.39 E1.04972
G1 X59.476 Y161.267 E1.06892
G1 X59.075 Y161.143 E1.08811
G1 X58.274 Y160.897 E1.12649
G1 X57.879 Y160.775 E1.14538
G1 X57.489 Y160.642 E1.16426
G1 X56.695 Y160.37 E1.20265
G1 X56.298 Y160.234 E1.22184
G1 X55.902 Y160.098 E1.24103
G1 X55.511 Y159.965 E1.25991
G1 X55.125 Y159.819 E1.2788
G1 X54.733 Y159.671 E1.29799
G1 X54.34 Y159.522 E1.31718
G1 X53.948 Y159.374 E1.33638
G1 X53.556 Y159.226 E1.35557
G1 X53.17 Y159.08 E1.37445
G1 X52.788 Y158.922 E1.39334
G1 X52.401 Y158.762 E1.41253
G1 X52.013 Y158.601 E1.43172
G1 X51.626 Y158.441 E1.45091
G1 X51.239 Y158.28 E1.4701
G1 X50.857 Y158.122 E1.48899
G1 X50.481 Y157.952 E1.50787
G1 X48.952 Y157.262 E1.58464
G1 X48.576 Y157.092 E1.60353
G1 X48.205 Y156.91 E1.62241
G1 X47.829 Y156.726 E1.6416
G1 X46.328 Y155.991 E1.71807
G1 X45.964 Y155.798 E1.73695
G1 X45.593 Y155.602 E1.75614
G1 X45.222 Y155.405 E1.77534
G1 X44.852 Y155.209 E1.79453
G1 X44.481 Y155.013 E1.81372
G1 X44.116 Y154.82 E1.8326
G1 X43.758 Y154.615 E1.85149
G1 X43.029 Y154.2 E1.88987
G1 X42.665 Y153.992 E1.90906
G1 X42.301 Y153.784 E1.92825
G1 X41.942 Y153.58 E1.94714
G1 X41.59 Y153.364 E1.96603
G1 X41.233 Y153.145 E1.98522
G1 X40.875 Y152.926 E2.00441
G1 X40.517 Y152.707 E2.0236
G1 X40.16 Y152.487 E2.04279
G1 X39.808 Y152.272 E2.06168
G1 X39.463 Y152.045 E2.08056
G1 X39.113 Y151.815 E2.09976
G1 X38.762 Y151.585 E2.11895
G1 X38.412 Y151.354 E2.13814
G1 X38.061 Y151.124 E2.15733
G1 X37.716 Y150.898 E2.17621
G1 X37.378 Y150.66 E2.1951
G1 X37.035 Y150.419 E2.21429
G1 X36.692 Y150.178 E2.23348
G1 X36.349 Y149.937 E2.25267
G1 X36.006 Y149.696 E2.27187
G1 X35.668 Y149.458 E2.29075
G1 X35.338 Y149.211 E2.30964
G1 X35.003 Y148.959 E2.32883
G1 X34.667 Y148.707 E2.34802
G1 X34.332 Y148.455 E2.36721
G1 X33.997 Y148.203 E2.3864
G1 X33.667 Y147.956 E2.40529
G1 X31.713 Y146.391 E2.51983
G1 X31.399 Y146.123 E2.53872
G1 X31.081 Y145.85 E2.55791
G1 X29.81 Y144.765 E2.63437
G1 X29.195 Y144.205 E2.67244
G1 X28.884 Y143.923 E2.69163
G1 X28.264 Y143.358 E2.73002
G1 X27.959 Y143.081 E2.7489
G1 X27.662 Y142.793 E2.76779
G1 X27.361 Y142.502 E2.78698
G1 X27.06 Y142.21 E2.80617
G1 X26.759 Y141.918 E2.82536
G1 X26.458 Y141.626 E2.84456
G1 X26.161 Y141.339 E2.86344
G1 X25.874 Y141.042 E2.88233
G1 X25.582 Y140.741 E2.90152
G1 X25.29 Y140.44 E2.92071
G1 X24.707 Y139.838 E2.95909
G1 X24.419 Y139.541 E2.97798
G1 X24.142 Y139.236 E2.99687
G1 X23.577 Y138.616 E3.03525
G1 X23.295 Y138.305 E3.05444
G1 X23.013 Y137.995 E3.07363
G1 X22.735 Y137.69 E3.09252
G1 X22.467 Y137.376 E3.1114
G1 X21.922 Y136.738 E3.14978
G1 X21.65 Y136.419 E3.16898
G1 X21.377 Y136.101 E3.18817
G1 X21.109 Y135.787 E3.20705
G1 X20.851 Y135.465 E3.22594
G1 X20.589 Y135.137 E3.24513
G1 X20.327 Y134.81 E3.26432
G1 X20.065 Y134.483 E3.28351
G1 X19.802 Y134.155 E3.30271
G1 X19.544 Y133.833 E3.32159
G1 X19.297 Y133.503 E3.34048
G1 X19.045 Y133.168 E3.35967
G1 X18.042 Y131.832 E3.43613
G1 X17.804 Y131.494 E3.45502
G1 X17.563 Y131.151 E3.47421
G1 X17.322 Y130.808 E3.4934
G1 X17.081 Y130.465 E3.51259
G1 X16.84 Y130.122 E3.53178
G1 X16.602 Y129.784 E3.55067
G1 X16.376 Y129.439 E3.56955
G1 X16.146 Y129.088 E3.58875
G1 X15.915 Y128.738 E3.60794
G1 X15.685 Y128.387 E3.62713
G1 X15.455 Y128.037 E3.64632
G1 X15.228 Y127.692 E3.6652
G1 X15.013 Y127.34 E3.68409
G1 X14.793 Y126.983 E3.70328
G1 X14.574 Y126.625 E3.72247
G1 X14.136 Y125.91 E3.76086
G1 X13.92 Y125.558 E3.77974
G1 X13.716 Y125.199 E3.79863
G1 X13.508 Y124.835 E3.81782
G1 X13.3 Y124.471 E3.83701
G1 X12.885 Y123.742 E3.87539
G1 X12.68 Y123.384 E3.89428
G1 X12.487 Y123.019 E3.91316
G1 X12.291 Y122.648 E3.93236
G1 X12.095 Y122.278 E3.95155
G1 X11.898 Y121.907 E3.97074
G1 X11.702 Y121.536 E3.98993
G1 X11.509 Y121.172 E4.00882
G1 X10.59 Y119.295 E4.10447
G1 X10.408 Y118.924 E4.12336
G1 X10.238 Y118.548 E4.14224
G1 X10.066 Y118.166 E4.16143
G1 X9.548 Y117.019 E4.21901
G1 X9.378 Y116.643 E4.23789
G1 X9.22 Y116.261 E4.25678
G1 X9.059 Y115.874 E4.27597
G1 X8.42 Y114.33 E4.35243
G1 X8.274 Y113.944 E4.37132
G1 X8.126 Y113.552 E4.39051
G1 X7.978 Y113.16 E4.4097
G1 X7.829 Y112.767 E4.42889
G1 X7.681 Y112.375 E4.44808
G1 X7.535 Y111.989 E4.46697
G1 X7.266 Y111.202 E4.50505
G1 X7.13 Y110.805 E4.52424
G1 X6.858 Y110.011 E4.56262
G1 X6.725 Y109.621 E4.58151
G1 X6.48 Y108.826 E4.61958
G1 X6.357 Y108.425 E4.63878
G1 X6.233 Y108.024 E4.65797
G1 X6.11 Y107.623 E4.67716
G1 X5.989 Y107.229 E4.69604
G1 X5.88 Y106.831 E4.71493
G1 X5.769 Y106.426 E4.73412
G1 X5.658 Y106.021 E4.75331
G1 X5.548 Y105.617 E4.7725
G1 X5.437 Y105.212 E4.79169
G1 X5.328 Y104.814 E4.81058
G1 X5.232 Y104.413 E4.82947
G1 X5.134 Y104.005 E4.84866
G1 X4.744 Y102.381 E4.92512
G1 X4.66 Y101.976 E4.94401
G1 X4.575 Y101.566 E4.9632
G1 X4.49 Y101.155 E4.98239
G1 X4.405 Y100.744 E5.00158
G1 X4.32 Y100.334 E5.02077
G1 X4.236 Y99.93 E5.03966
G1 X4.165 Y99.523 E5.05854
G1 X4.093 Y99.11 E5.07774
G1 X4.021 Y98.697 E5.09693
G1 X3.949 Y98.284 E5.11612
G1 X3.877 Y97.87 E5.13531
G1 X3.806 Y97.464 E5.1542
G1 X3.748 Y97.055 E5.17308
G1 X3.689 Y96.64 E5.19227
G1 X3.63 Y96.225 E5.21146
G1 X3.571 Y95.81 E5.23066
G1 X3.511 Y95.394 E5.24985
G1 X3.453 Y94.986 E5.26873
G1 X3.408 Y94.576 E5.28762
G1 X3.362 Y94.159 E5.30681
G1 X3.316 Y93.742 E5.326
G1 X3.27 Y93.325 E5.34519
G1 X3.224 Y92.908 E5.36438
G1 X3.179 Y92.498 E5.38327
G1 X3.146 Y92.087 E5.40216
G1 X3.015 Y90.414 E5.47892
G1 X2.982 Y90.003 E5.49781
G1 X2.963 Y89.591 E5.51669
G1 X2.943 Y89.172 E5.53588
G1 X2.864 Y87.503 E5.61234
G1 X2.858 Y87.09 E5.63123
G1 X2.851 Y86.671 E5.65042
G1 X2.845 Y86.251 E5.66961
G1 X2.838 Y85.832 E5.68881
G1 X2.832 Y85.413 E5.708
G1 X2.825 Y85 E5.72688
G1 X2.832 Y84.587 E5.74577
G1 X2.838 Y84.168 E5.76496
G1 X2.845 Y83.749 E5.78415
G1 X2.851 Y83.329 E5.80334
G1 X2.858 Y82.91 E5.82253
G1 X2.864 Y82.497 E5.84142
G1 X2.963 Y80.409 E5.93707
G1 X2.982 Y79.997 E5.95596
G1 X3.015 Y79.586 E5.97484
G1 X3.08 Y78.75 E6.01323
G1 X3.113 Y78.331 E6.03242
G1 X3.146 Y77.913 E6.05161
G1 X3.179 Y77.502 E6.0705
G1 X3.224 Y77.092 E6.08938
G1 X3.27 Y76.675 E6.10857
G1 X3.316 Y76.258 E6.12776
G1 X3.408 Y75.424 E6.16615
G1 X3.453 Y75.014 E6.18503
G1 X3.511 Y74.606 E6.20392
G1 X3.571 Y74.19 E6.22311
G1 X3.63 Y73.775 E6.2423
G1 X3.689 Y73.36 E6.26149
G1 X3.748 Y72.945 E6.28068
G1 X3.806 Y72.536 E6.29957
G1 X3.877 Y72.13 E6.31846
G1 X3.949 Y71.716 E6.33765
G1 X4.021 Y71.303 E6.35684
G1 X4.093 Y70.89 E6.37603
G1 X4.165 Y70.477 E6.39522
G1 X4.236 Y70.07 E6.41411
G1 X4.32 Y69.666 E6.43299
G1 X4.405 Y69.256 E6.45219
G1 X4.49 Y68.845 E6.47138
G1 X4.575 Y68.434 E6.49057
G1 X4.66 Y68.024 E6.50976
G1 X4.744 Y67.619 E6.52865
G1 X5.232 Y65.587 E6.6243
G1 X5.328 Y65.186 E6.64318
G1 X5.437 Y64.788 E6.66207
G1 X5.548 Y64.383 E6.68126
G1 X5.658 Y63.979 E6.70045
G1 X5.769 Y63.574 E6.71964
G1 X5.88 Y63.169 E6.73884
G1 X5.989 Y62.771 E6.75772
G1 X6.11 Y62.377 E6.77661
G1 X6.233 Y61.976 E6.7958
G1 X6.357 Y61.575 E6.81499
G1 X6.48 Y61.174 E6.83418
G1 X6.603 Y60.774 E6.85337
G1 X6.725 Y60.379 E6.87226
G1 X6.858 Y59.989 E6.89115
G1 X6.994 Y59.592 E6.91034
G1 X7.13 Y59.195 E6.92953
G1 X7.266 Y58.798 E6.94872
G1 X7.402 Y58.402 E6.96791
G1 X7.535 Y58.011 E6.9868
G1 X7.681 Y57.625 E7.00568
G1 X7.829 Y57.233 E7.02487
G1 X7.978 Y56.84 E7.04407
G1 X8.126 Y56.448 E7.06326
G1 X8.274 Y56.056 E7.08245
G1 X8.42 Y55.67 E7.10134
G1 X8.738 Y54.901 E7.13941
G1 X8.899 Y54.513 E7.1586
G1 X9.22 Y53.739 E7.19699
G1 X9.378 Y53.357 E7.21587
G1 X9.548 Y52.981 E7.23476
G1 X10.238 Y51.452 E7.31152
G1 X10.408 Y51.076 E7.33041
G1 X10.59 Y50.705 E7.3493
G1 X10.774 Y50.329 E7.36849
G1 X11.509 Y48.828 E7.44495
G1 X11.898 Y48.093 E7.48303
G1 X12.095 Y47.722 E7.50222
G1 X12.291 Y47.352 E7.52141
G1 X12.487 Y46.981 E7.5406
G1 X12.68 Y46.616 E7.55949
G1 X12.885 Y46.258 E7.57837
G1 X13.3 Y45.529 E7.61675
G1 X13.508 Y45.165 E7.63594
G1 X13.716 Y44.801 E7.65514
G1 X13.92 Y44.442 E7.67402
G1 X15.013 Y42.66 E7.76967
G1 X15.228 Y42.308 E7.78856
G1 X15.455 Y41.963 E7.80745
G1 X15.685 Y41.613 E7.82664
G1 X15.915 Y41.262 E7.84583
G1 X16.146 Y40.912 E7.86502
G1 X16.376 Y40.561 E7.88421
G1 X16.602 Y40.216 E7.9031
G1 X16.84 Y39.878 E7.92198
G1 X17.322 Y39.192 E7.96037
G1 X17.563 Y38.849 E7.97956
G1 X17.804 Y38.506 E7.99875
G1 X18.042 Y38.168 E8.01763
G1 X18.289 Y37.838 E8.03652
G1 X18.793 Y37.167 E8.0749
G1 X19.045 Y36.832 E8.0941
G1 X19.297 Y36.497 E8.11329
G1 X19.544 Y36.167 E8.13217
G1 X20.065 Y35.517 E8.17025
G1 X20.327 Y35.19 E8.18944
G1 X20.851 Y34.535 E8.22783
G1 X21.109 Y34.213 E8.24671
G1 X21.377 Y33.899 E8.2656
G1 X21.65 Y33.581 E8.28479
G1 X21.922 Y33.262 E8.30398
G1 X22.467 Y32.624 E8.34236
G1 X22.735 Y32.31 E8.36125
G1 X23.295 Y31.695 E8.39933
G1 X23.577 Y31.384 E8.41852
G1 X24.142 Y30.764 E8.4569
G1 X24.419 Y30.459 E8.47579
G1 X25.874 Y28.958 E8.57144
G1 X26.161 Y28.661 E8.59032
G1 X26.458 Y28.374 E8.60921
G1 X26.759 Y28.082 E8.6284
G1 X27.959 Y26.919 E8.70486
G1 X28.264 Y26.642 E8.72375
G1 X28.884 Y26.077 E8.76213
G1 X29.195 Y25.795 E8.78132
G1 X29.505 Y25.513 E8.80051
G1 X29.81 Y25.235 E8.8194
G1 X30.124 Y24.967 E8.83828
G1 X30.762 Y24.422 E8.87667
G1 X31.081 Y24.15 E8.89586
G1 X31.399 Y23.877 E8.91505
G1 X31.713 Y23.609 E8.93394
G1 X32.035 Y23.351 E8.95282
G1 X32.69 Y22.827 E8.99121
G1 X33.017 Y22.565 E9.0104
G1 X33.345 Y22.302 E9.02959
G1 X33.667 Y22.044 E9.04847
G1 X33.997 Y21.797 E9.06736
G1 X34.332 Y21.545 E9.08655
G1 X34.667 Y21.293 E9.10574
G1 X35.338 Y20.789 E9.14413
G1 X35.668 Y20.542 E9.16301
G1 X36.349 Y20.063 E9.20109
G1 X36.692 Y19.822 E9.22028
G1 X37.378 Y19.34 E9.25867
G1 X37.716 Y19.102 E9.27755
G1 X38.061 Y18.876 E9.29644
G1 X38.412 Y18.646 E9.31563
G1 X38.762 Y18.415 E9.33482
G1 X39.113 Y18.185 E9.35401
G1 X39.463 Y17.955 E9.3732
G1 X39.808 Y17.728 E9.39209
G1 X40.16 Y17.513 E9.41097
G1 X40.517 Y17.293 E9.43016
G1 X41.942 Y16.42 E9.50663
G1 X42.301 Y16.216 E9.52551
G1 X42.665 Y16.008 E9.5447
G1 X43.029 Y15.8 E9.56389
G1 X43.758 Y15.385 E9.60228
G1 X44.116 Y15.18 E9.62116
G1 X44.481 Y14.987 E9.64005
G1 X44.852 Y14.791 E9.65924
G1 X45.222 Y14.595 E9.67843
G1 X45.593 Y14.398 E9.69762
G1 X45.964 Y14.202 E9.71681
G1 X46.328 Y14.009 E9.7357
G1 X48.205 Y13.09 E9.83135
G1 X48.576 Y12.908 E9.85024
G1 X48.952 Y12.738 E9.86913
G1 X49.334 Y12.566 E9.88832
G1 X50.481 Y12.048 E9.94589
G1 X50.857 Y11.878 E9.96478
G1 X51.239 Y11.72 E9.98366
G1 X51.626 Y11.559 E10.00285
G1 X52.013 Y11.399 E10.02204
G1 X52.401 Y11.238 E10.04124
G1 X52.788 Y11.078 E10.06043
G1 X53.17 Y10.92 E10.07931
G1 X53.556 Y10.774 E10.0982
G1 X53.948 Y10.626 E10.11739
G1 X54.34 Y10.478 E10.13658
G1 X54.733 Y10.329 E10.15577
G1 X55.125 Y10.181 E10.17497
G1 X55.511 Y10.035 E10.19385
G1 X56.298 Y9.766 E10.23193
G1 X56.695 Y9.63 E10.25112
G1 X57.489 Y9.358 E10.2895
G1 X57.879 Y9.225 E10.30839
G1 X58.674 Y8.98 E10.34647
G1 X59.075 Y8.857 E10.36566
G1 X59.476 Y8.733 E10.38485
G1 X59.877 Y8.61 E10.40404
G1 X60.271 Y8.489 E10.42293
G1 X60.669 Y8.38 E10.44181
G1 X61.074 Y8.269 E10.461
G1 X61.479 Y8.158 E10.4802
G1 X61.883 Y8.048 E10.49939
G1 X62.288 Y7.937 E10.51858
G1 X62.686 Y7.828 E10.53746
G1 X63.087 Y7.732 E10.55635
G1 X63.495 Y7.634 E10.57554
G1 X65.119 Y7.244 E10.652
G1 X65.524 Y7.16 E10.67089
G1 X65.934 Y7.075 E10.69008
G1 X66.345 Y6.99 E10.70927
G1 X66.756 Y6.905 E10.72846
G1 X67.166 Y6.82 E10.74765
G1 X67.57 Y6.736 E10.76654
G1 X67.977 Y6.665 E10.78543
G1 X68.39 Y6.593 E10.80462
G1 X68.803 Y6.521 E10.82381
G1 X69.216 Y6.449 E10.843
G1 X69.63 Y6.377 E10.86219
G1 X70.036 Y6.306 E10.88108
G1 X70.445 Y6.248 E10.89996
G1 X70.86 Y6.189 E10.91916
G1 X71.275 Y6.13 E10.93835
G1 X71.69 Y6.071 E10.95754
G1 X72.106 Y6.011 E10.97673
G1 X72.514 Y5.953 E10.99562
G1 X72.924 Y5.908 E11.0145
G1 X73.341 Y5.862 E11.03369
G1 X73.758 Y5.816 E11.05288
G1 X74.175 Y5.77 E11.07208
G1 X74.592 Y5.724 E11.09127
G1 X75.002 Y5.679 E11.11015
G1 X75.413 Y5.646 E11.12904
G1 X75.831 Y5.613 E11.14823
G1 X76.25 Y5.58 E11.16742
G1 X77.086 Y5.515 E11.2058
G1 X77.497 Y5.482 E11.22469
G1 X77.909 Y5.463 E11.24358
G1 X78.328 Y5.443 E11.26277
G1 X79.997 Y5.364 E11.33923
G1 X80.41 Y5.358 E11.35811
G1 X80.829 Y5.351 E11.3773
G1 X81.249 Y5.345 E11.3965
G1 X81.668 Y5.338 E11.41569
G1 X82.087 Y5.332 E11.43488
G1 X82.5 Y5.325 E11.45377
G1 X82.913 Y5.332 E11.47265
G1 X83.332 Y5.338 E11.49184
G1 X83.751 Y5.345 E11.51103
G1 X84.171 Y5.351 E11.53023
G1 X84.59 Y5.358 E11.54942
G1 X85.003 Y5.364 E11.5683
G1 X87.091 Y5.463 E11.66395
G1 X87.503 Y5.482 E11.68284
G1 X87.914 Y5.515 E11.70173
G1 X89.587 Y5.646 E11.77849
G1 X89.998 Y5.679 E11.79738
G1 X90.408 Y5.724 E11.81626
G1 X90.825 Y5.77 E11.83546
G1 X91.242 Y5.816 E11.85465
G1 X91.659 Y5.862 E11.87384
G1 X92.076 Y5.908 E11.89303
G1 X92.486 Y5.953 E11.91192
G1 X92.894 Y6.011 E11.9308
G1 X93.31 Y6.071 E11.94999
G1 X93.725 Y6.13 E11.96918
G1 X94.14 Y6.189 E11.98837
G1 X94.555 Y6.248 E12.00757
G1 X94.964 Y6.306 E12.02645
G1 X95.37 Y6.377 E12.04534
G1 X95.784 Y6.449 E12.06453
G1 X96.61 Y6.593 E12.10291
G1 X97.023 Y6.665 E12.1221
G1 X97.43 Y6.736 E12.14099
G1 X97.834 Y6.82 E12.15988
G1 X98.244 Y6.905 E12.17907
G1 X98.655 Y6.99 E12.19826
G1 X99.066 Y7.075 E12.21745
G1 X99.476 Y7.16 E12.23664
G1 X99.881 Y7.244 E12.25553
G1 X101.913 Y7.732 E12.35118
G1 X102.314 Y7.828 E12.37007
G1 X102.712 Y7.937 E12.38895
G1 X103.117 Y8.048 E12.40814
G1 X103.521 Y8.158 E12.42734
G1 X103.926 Y8.269 E12.44653
G1 X104.331 Y8.38 E12.46572
G1 X104.729 Y8.489 E12.4846
G1 X105.123 Y8.61 E12.50349
G1 X105.524 Y8.733 E12.52268
G1 X105.925 Y8.857 E12.54187
G1 X106.326 Y8.98 E12.56106
G1 X106.726 Y9.103 E12.58026
G1 X107.121 Y9.225 E12.59914
G1 X107.511 Y9.358 E12.61803
G1 X107.908 Y9.494 E12.63722
G1 X108.305 Y9.63 E12.65641
