; generated by SuperSlicer 2.3.57 on 2022-07-23 at 07:31:38 UTC


;
;

;
;
; 

; external perimeters extrusion width = 0.45mm
; perimeters extrusion width = 0.45mm
; infill extrusion width = 0.60mm
; solid infill extrusion width = 0.50mm
; top infill extrusion width = 0.40mm
; first layer extrusion width = 0.55mm


M140 S110 ; set bed temperature
;TYPE:Custom
print_start EXT_TEMP=245 BED_TEMP=110
M107
G21 ; set units to millimeters
G90 ; use absolute coordinates
M82 ; use absolute distances for extrusion
G92 E0
; 2021-09-23: 255C, 0.92 ext, Galaxy Black on Dragon HF w/0.4 nozzle and 0.45 width and 0.3mm layers; cube with 0.002 factor yielded 0.064 best setting (.06 --> .07 OK range)
; at 240C: 0.06
; at 255C: 0.064
; at 270C: 0.044

;2022-03-20  After nozzle change: 0.4 E3D nozzle @ 235C, 80 mm/s: 0.054 --> 0.06
;SET_PRESSURE_ADVANCE ADVANCE=0.06
; Still seems too much.  Testing a bit less.
SET_PRESSURE_ADVANCE ADVANCE=0.04
M109 S245 ; set temperature and wait for it to be reached
M190 S110 ; set bed temperature and wait for it to be reached
;LAYER_CHANGE
;Z:0.24
;HEIGHT:0.24
G1 Z0.24 F12000
G1 E-1.25 F1800
M204 P2000
G1 Z0.38 F12000
G1 X82.5 Y162.175
G1 Z0.24
G1 E0 F1800
;TYPE:External perimeter
;WIDTH:0.55
G1 F2400
G1 X5.325 Y162.175 E3.5316
G1 X5.325 Y7.825 E10.59479
G1 X159.675 Y7.825 E17.65798
G1 X159.675 Y162.175 E24.72117
G1 X82.56 Y162.175 E28.25002
;WIPE_START
M204 P4000
G1 X82.3 Y161.829 F12000
;WIPE_END
M204 P2000
G1 X82.5 Y161.677
;TYPE:Internal perimeter
G1 F2400
G1 X5.823 Y161.677 E31.75881
G1 X5.823 Y8.323 E38.77638
G1 X159.177 Y8.323 E45.79395
G1 X159.177 Y161.677 E52.81151
G1 X82.56 Y161.677 E56.31755
G1 X82.5 Y161.178 F12000
G1 F2400
G1 X6.322 Y161.178 E59.80353
G1 X6.322 Y8.822 E66.77547
G1 X158.678 Y8.822 E73.74742
G1 X158.678 Y161.178 E80.71936
G1 X82.56 Y161.178 E84.20259
G1 X82.5 Y160.68 F12000
G1 F2400
G1 X6.82 Y160.68 E87.66575
G1 X6.82 Y9.32 E94.59207
G1 X158.18 Y9.32 E101.5184
G1 X158.18 Y160.68 E108.44472
G1 X82.56 Y160.68 E111.90514
G1 X82.5 Y160.181 F12000
G1 F2400
G1 X7.319 Y160.181 E115.34549
G1 X7.319 Y9.819 E122.22619
G1 X157.681 Y9.819 E129.10688
G1 X157.681 Y160.181 E135.98758
G1 X82.56 Y160.181 E139.42519
G1 X82.5 Y159.683 F12000
G1 F2400
G1 X7.817 Y159.683 E142.84273
G1 X7.817 Y10.317 E149.6778
G1 X157.183 Y10.317 E156.51288
G1 X157.183 Y159.683 E163.34796
G1 X82.56 Y159.683 E166.76275
G1 X82.5 Y159.184 F12000
G1 F2400
G1 X8.316 Y159.184 E170.15748
G1 X8.316 Y10.816 E176.94693
G1 X156.684 Y10.816 E183.73638
G1 X156.684 Y159.184 E190.52584
G1 X82.56 Y159.184 E193.91782
G1 X82.5 Y158.686 F12000
G1 F2400
G1 X8.814 Y158.686 E197.28973
G1 X8.814 Y11.314 E204.03356
G1 X156.186 Y11.314 E210.77739
G1 X156.186 Y158.686 E217.52122
G1 X82.56 Y158.686 E220.89039
G1 X82.5 Y158.187 F12000
G1 F2400
G1 X9.313 Y158.187 E224.23949
G1 X9.313 Y11.813 E230.9377
G1 X155.687 Y11.813 E237.63591
G1 X155.687 Y158.187 E244.33412
G1 X82.56 Y158.187 E247.68047
G1 X82.5 Y157.689 F12000
G1 F2400
G1 X9.811 Y157.689 E251.00677
G1 X9.811 Y12.311 E257.65935
G1 X155.189 Y12.311 E264.31193
G1 X155.189 Y157.689 E270.96452
G1 X82.56 Y157.689 E274.28806
G92 E0
G1 E-1.25 F1800
G1 Z0.38 F12000
G1 X154.006 Y12.486
G1 Z0.24
G1 E0 F1800
;TYPE:Solid infill
;WIDTH:0.549972
G1 F3600
G1 X154.8 Y13.279 E0.05134
G1 X154.8 Y13.984 E0.0836
G1 X153.516 Y12.7 E0.16669
G1 X152.811 Y12.7 E0.19894
G1 X154.8 Y14.689 E0.32765
G1 X154.8 Y15.394 E0.35991
G1 X152.106 Y12.7 E0.53424
G1 X151.401 Y12.7 E0.5665
G1 X154.8 Y16.099 E0.78645
G1 X154.8 Y16.804 E0.81871
G1 X150.696 Y12.7 E1.08428
G1 X149.991 Y12.7 E1.11654
G1 X154.8 Y17.509 E1.42773
G1 X154.8 Y18.214 E1.45999
G1 X149.286 Y12.7 E1.8168
G1 X148.581 Y12.7 E1.84906
G1 X154.8 Y18.919 E2.2515
G1 X154.8 Y19.624 E2.28376
G1 X147.876 Y12.7 E2.73181
G1 X147.171 Y12.7 E2.76407
G1 X154.8 Y20.329 E3.25774
G1 X154.8 Y21.034 E3.29
G1 X146.466 Y12.7 E3.8293
G1 X145.761 Y12.7 E3.86156
G1 X154.8 Y21.739 E4.44648
G1 X154.8 Y22.444 E4.47873
G1 X145.056 Y12.7 E5.10927
G1 X144.351 Y12.7 E5.14153
G1 X154.8 Y23.149 E5.81769
G1 X154.8 Y23.854 E5.84995
G1 X143.646 Y12.7 E6.57173
G1 X142.941 Y12.7 E6.60399
G1 X154.8 Y24.559 E7.37139
G1 X154.8 Y25.264 E7.40365
G1 X142.236 Y12.7 E8.21667
G1 X141.531 Y12.7 E8.24893
G1 X154.8 Y25.969 E9.10757
G1 X154.8 Y26.674 E9.13983
G1 X140.826 Y12.7 E10.04409
G1 X140.121 Y12.7 E10.07635
G1 X154.8 Y27.379 E11.02623
G1 X154.8 Y28.084 E11.05849
G1 X139.416 Y12.7 E12.054
G1 X138.711 Y12.7 E12.08625
G1 X154.8 Y28.789 E13.12738
G1 X154.8 Y29.494 E13.15964
G1 X138.006 Y12.7 E14.24638
G1 X137.301 Y12.7 E14.27864
G1 X154.8 Y30.199 E15.41101
G1 X154.8 Y30.904 E15.44327
G1 X136.596 Y12.7 E16.62126
G1 X135.891 Y12.7 E16.65352
G1 X154.8 Y31.609 E17.87712
G1 X154.8 Y32.314 E17.90938
G1 X135.186 Y12.7 E19.17861
G1 X134.481 Y12.7 E19.21087
G1 X154.8 Y33.019 E20.52572
G1 X154.8 Y33.724 E20.55798
G1 X133.776 Y12.7 E21.91845
G1 X133.071 Y12.7 E21.95071
G1 X154.8 Y34.429 E23.3568
G1 X154.8 Y35.134 E23.38906
G1 X132.366 Y12.7 E24.84077
G1 X131.661 Y12.7 E24.87303
G1 X154.8 Y35.839 E26.37037
G1 X154.8 Y36.544 E26.40262
G1 X130.956 Y12.7 E27.94558
G1 X130.251 Y12.7 E27.97784
G1 X154.8 Y37.249 E29.56641
G1 X154.8 Y37.953 E29.59867
G1 X129.547 Y12.7 E31.23287
G1 X128.842 Y12.7 E31.26513
G1 X154.8 Y38.658 E32.94494
G1 X154.8 Y39.363 E32.9772
G1 X128.137 Y12.7 E34.70264
G1 X127.432 Y12.7 E34.7349
G1 X154.8 Y40.068 E36.50596
G1 X154.8 Y40.773 E36.53821
G1 X126.727 Y12.7 E38.35489
G1 X126.022 Y12.7 E38.38715
G1 X154.8 Y41.478 E40.24945
G1 X154.8 Y42.183 E40.28171
G1 X125.317 Y12.7 E42.18963
G1 X124.612 Y12.7 E42.22189
G1 X154.8 Y42.888 E44.17543
G1 X154.8 Y43.593 E44.20769
G1 X123.907 Y12.7 E46.20685
G1 X123.202 Y12.7 E46.23911
G1 X154.8 Y44.298 E48.2839
G1 X154.8 Y45.003 E48.31615
G1 X122.497 Y12.7 E50.40656
G1 X121.792 Y12.7 E50.43882
G1 X154.8 Y45.708 E52.57484
G1 X154.8 Y46.413 E52.6071
G1 X121.087 Y12.7 E54.78875
G1 X120.382 Y12.7 E54.82101
G1 X154.8 Y47.118 E57.04827
G1 X154.8 Y47.823 E57.08053
G1 X119.677 Y12.7 E59.35342
G1 X118.972 Y12.7 E59.38568
G1 X154.8 Y48.528 E61.70419
G1 X154.8 Y49.233 E61.73644
G1 X118.267 Y12.7 E64.10057
G1 X117.562 Y12.7 E64.13283
G1 X154.8 Y49.938 E66.54258
G1 X154.8 Y50.643 E66.57484
G1 X116.857 Y12.7 E69.03021
G1 X116.152 Y12.7 E69.06247
G1 X154.8 Y51.348 E71.56346
G1 X154.8 Y52.053 E71.59572
G1 X115.447 Y12.7 E74.14233
G1 X114.742 Y12.7 E74.17459
G1 X154.8 Y52.758 E76.76682
G1 X154.8 Y53.463 E76.79908
G1 X114.037 Y12.7 E79.43694
G1 X113.332 Y12.7 E79.46919
G1 X154.8 Y54.168 E82.15267
G1 X154.8 Y54.873 E82.18493
G1 X112.627 Y12.7 E84.91402
G1 X111.922 Y12.7 E84.94628
G1 X154.8 Y55.578 E87.721
G1 X154.8 Y56.283 E87.75326
G1 X111.217 Y12.7 E90.57359
G1 X110.512 Y12.7 E90.60585
G1 X154.8 Y56.988 E93.47181
G1 X154.8 Y57.693 E93.50407
G1 X109.807 Y12.7 E96.41565
G1 X109.102 Y12.7 E96.44791
G1 X154.8 Y58.398 E99.40511
G1 X154.8 Y59.103 E99.43737
G1 X108.397 Y12.7 E102.44019
G1 X107.692 Y12.7 E102.47244
G1 X154.8 Y59.808 E105.52089
G1 X154.8 Y60.513 E105.55314
G1 X106.987 Y12.7 E108.64721
G1 X106.282 Y12.7 E108.67947
G1 X154.8 Y61.218 E111.81915
G1 X154.8 Y61.923 E111.85141
G1 X105.577 Y12.7 E115.03671
G1 X104.872 Y12.7 E115.06897
G1 X154.8 Y62.628 E118.29989
G1 X154.8 Y63.333 E118.33215
G1 X104.167 Y12.7 E121.6087
G1 X103.462 Y12.7 E121.64096
G1 X154.8 Y64.038 E124.96312
G1 X154.8 Y64.743 E124.99538
G1 X102.757 Y12.7 E128.36317
G1 X102.052 Y12.7 E128.39543
G1 X154.8 Y65.448 E131.80883
G1 X154.8 Y66.153 E131.84109
G1 X101.347 Y12.7 E135.30012
G1 X100.642 Y12.7 E135.33238
G1 X154.8 Y66.858 E138.83703
G1 X154.8 Y67.563 E138.86929
G1 X99.937 Y12.7 E142.41956
G1 X99.232 Y12.7 E142.45182
G1 X154.8 Y68.268 E146.04771
G1 X154.8 Y68.973 E146.07997
G1 X98.527 Y12.7 E149.72148
G1 X97.822 Y12.7 E149.75374
G1 X154.8 Y69.678 E153.44087
G1 X154.8 Y70.382 E153.47313
G1 X97.118 Y12.7 E157.20588
G1 X96.413 Y12.7 E157.23814
G1 X154.8 Y71.087 E161.01652
G1 X154.8 Y71.792 E161.04877
G1 X95.708 Y12.7 E164.87277
G1 X95.003 Y12.7 E164.90503
G1 X154.8 Y72.497 E168.77464
G1 X154.8 Y73.202 E168.8069
G1 X94.298 Y12.7 E172.72214
G1 X93.593 Y12.7 E172.7544
G1 X154.8 Y73.907 E176.71525
G1 X154.8 Y74.612 E176.74751
G1 X92.888 Y12.7 E180.75399
G1 X92.183 Y12.7 E180.78625
G1 X154.8 Y75.317 E184.83835
G1 X154.8 Y76.022 E184.87061
G1 X91.478 Y12.7 E188.96833
G1 X90.773 Y12.7 E189.00059
G1 X154.8 Y76.727 E193.14393
G1 X154.8 Y77.432 E193.17619
G1 X90.068 Y12.7 E197.36515
G1 X89.363 Y12.7 E197.39741
G1 X154.8 Y78.137 E201.63199
G1 X154.8 Y78.842 E201.66425
G1 X88.658 Y12.7 E205.94445
G1 X87.953 Y12.7 E205.97671
G1 X154.8 Y79.547 E210.30253
G1 X154.8 Y80.252 E210.33479
G1 X87.248 Y12.7 E214.70624
G1 X86.543 Y12.7 E214.7385
G1 X154.8 Y80.957 E219.15556
G1 X154.8 Y81.662 E219.18782
G1 X85.838 Y12.7 E223.65051
G1 X85.133 Y12.7 E223.68277
G1 X154.8 Y82.367 E228.19107
G1 X154.8 Y83.072 E228.22333
G1 X84.428 Y12.7 E232.77726
G1 X83.723 Y12.7 E232.80952
G1 X154.8 Y83.777 E237.40907
G1 X154.8 Y84.482 E237.44133
G1 X83.018 Y12.7 E242.0865
G1 X82.313 Y12.7 E242.11875
G1 X154.8 Y85.187 E246.80954
G1 X154.8 Y85.892 E246.8418
G1 X81.608 Y12.7 E251.57821
G1 X80.903 Y12.7 E251.61047
G1 X154.8 Y86.597 E256.39251
G1 X154.8 Y87.302 E256.42476
G1 X80.198 Y12.7 E261.25242
G1 X79.493 Y12.7 E261.28468
G1 X154.8 Y88.007 E266.15795
G1 X154.8 Y88.712 E266.19021
G1 X78.788 Y12.7 E271.1091
G1 X78.083 Y12.7 E271.14136
G1 X154.8 Y89.417 E276.10588
G1 X154.8 Y90.122 E276.13814
G1 X77.378 Y12.7 E281.14827
G1 X76.673 Y12.7 E281.18053
G1 X154.8 Y90.827 E286.23629
G1 X154.8 Y91.532 E286.26855
G1 X75.968 Y12.7 E291.36992
G1 X75.263 Y12.7 E291.40218
G1 X154.8 Y92.237 E296.54918
G1 X154.8 Y92.942 E296.58144
G1 X74.558 Y12.7 E301.77406
G1 X73.853 Y12.7 E301.80632
G1 X154.8 Y93.647 E307.04456
G1 X154.8 Y94.352 E307.07682
G1 X73.148 Y12.7 E312.36068
G1 X72.443 Y12.7 E312.39294
G1 X154.8 Y95.057 E317.72242
G1 X154.8 Y95.762 E317.75468
G1 X71.738 Y12.7 E323.12978
G1 X71.033 Y12.7 E323.16204
G1 X154.8 Y96.467 E328.58276
G1 X154.8 Y97.172 E328.61502
G1 X70.328 Y12.7 E334.08137
G1 X69.623 Y12.7 E334.11362
G1 X154.8 Y97.877 E339.62559
G1 X154.8 Y98.582 E339.65785
G1 X68.918 Y12.7 E345.21543
G1 X68.213 Y12.7 E345.24769
G1 X154.8 Y99.287 E350.8509
G1 X154.8 Y99.992 E350.88316
G1 X67.508 Y12.7 E356.53199
G1 X66.803 Y12.7 E356.56425
G1 X154.8 Y100.697 E362.25869
G1 X154.8 Y101.402 E362.29095
G1 X66.098 Y12.7 E368.03102
G1 X65.393 Y12.7 E368.06328
G1 X154.8 Y102.107 E373.84897
G1 X154.8 Y102.811 E373.88123
G1 X64.689 Y12.7 E379.71254
G1 X63.984 Y12.7 E379.7448
G1 X154.8 Y103.516 E385.62173
G1 X154.8 Y104.221 E385.65399
G1 X63.279 Y12.7 E391.57654
G1 X62.574 Y12.7 E391.6088
G1 X154.8 Y104.926 E397.57697
G1 X154.8 Y105.631 E397.60923
G1 X61.869 Y12.7 E403.62303
G1 X61.164 Y12.7 E403.65528
G1 X154.8 Y106.336 E409.7147
G1 X154.8 Y107.041 E409.74696
G1 X60.459 Y12.7 E415.85199
G1 X59.754 Y12.7 E415.88425
G1 X154.8 Y107.746 E422.03491
G1 X154.8 Y108.451 E422.06717
G1 X59.049 Y12.7 E428.26345
G1 X58.344 Y12.7 E428.2957
G1 X154.8 Y109.156 E434.5376
G1 X154.8 Y109.861 E434.56986
G1 X57.639 Y12.7 E440.85738
G1 X56.934 Y12.7 E440.88964
G1 X154.8 Y110.566 E447.22278
G1 X154.8 Y111.271 E447.25504
G1 X56.229 Y12.7 E453.6338
G1 X55.524 Y12.7 E453.66606
G1 X154.8 Y111.976 E460.09044
G1 X154.8 Y112.681 E460.1227
G1 X54.819 Y12.7 E466.5927
G1 X54.114 Y12.7 E466.62496
G1 X154.8 Y113.386 E473.14058
G1 X154.8 Y114.091 E473.17284
G1 X53.409 Y12.7 E479.73408
G1 X52.704 Y12.7 E479.76634
G1 X154.8 Y114.796 E486.37321
G1 X154.8 Y115.501 E486.40547
G1 X51.999 Y12.7 E493.05795
G1 X51.294 Y12.7 E493.09021
G1 X154.8 Y116.206 E499.78832
G1 X154.8 Y116.911 E499.82058
G1 X50.589 Y12.7 E506.5643
G1 X49.884 Y12.7 E506.59656
G1 X154.8 Y117.616 E513.38591
G1 X154.8 Y118.321 E513.41817
G1 X49.179 Y12.7 E520.25314
G1 X48.474 Y12.7 E520.2854
G1 X154.8 Y119.026 E527.16598
G1 X154.8 Y119.731 E527.19824
G1 X47.769 Y12.7 E534.12445
G1 X47.064 Y12.7 E534.15671
G1 X154.8 Y120.436 E541.12854
G1 X154.8 Y121.141 E541.1608
G1 X46.359 Y12.7 E548.17825
G1 X45.654 Y12.7 E548.21051
G1 X154.8 Y121.846 E555.27359
G1 X154.8 Y122.551 E555.30584
G1 X44.949 Y12.7 E562.41454
G1 X44.244 Y12.7 E562.4468
G1 X154.8 Y123.256 E569.60111
G1 X154.8 Y123.961 E569.63337
G1 X43.539 Y12.7 E576.83331
G1 X42.834 Y12.7 E576.86556
G1 X154.8 Y124.666 E584.11112
G1 X154.8 Y125.371 E584.14338
G1 X42.129 Y12.7 E591.43456
G1 X41.424 Y12.7 E591.46681
G1 X154.8 Y126.076 E598.80361
G1 X154.8 Y126.781 E598.83587
G1 X40.719 Y12.7 E606.21829
G1 X40.014 Y12.7 E606.25055
G1 X154.8 Y127.486 E613.67859
G1 X154.8 Y128.191 E613.71085
G1 X39.309 Y12.7 E621.18451
G1 X38.604 Y12.7 E621.21677
G1 X154.8 Y128.896 E628.73605
G1 X154.8 Y129.601 E628.76831
G1 X37.899 Y12.7 E636.33321
G1 X37.194 Y12.7 E636.36547
G1 X154.8 Y130.306 E643.97599
G1 X154.8 Y131.011 E644.00825
G1 X36.489 Y12.7 E651.66439
G1 X35.784 Y12.7 E651.69665
G1 X154.8 Y131.716 E659.39841
G1 X154.8 Y132.421 E659.43067
G1 X35.079 Y12.7 E667.17806
G1 X34.374 Y12.7 E667.21032
G1 X154.8 Y133.126 E675.00332
G1 X154.8 Y133.831 E675.03558
G1 X33.669 Y12.7 E682.87421
G1 X32.964 Y12.7 E682.90647
G1 X154.8 Y134.536 E690.79071
G1 X154.8 Y135.241 E690.82297
G1 X32.259 Y12.7 E698.75284
G1 X31.555 Y12.7 E698.7851
G1 X154.8 Y135.945 E706.76059
G1 X154.8 Y136.65 E706.79285
G1 X30.85 Y12.7 E714.81396
G1 X30.145 Y12.7 E714.84622
G1 X154.8 Y137.355 E722.91295
G1 X154.8 Y138.06 E722.94521
G1 X29.44 Y12.7 E731.05756
G1 X28.735 Y12.7 E731.08982
G1 X154.8 Y138.765 E739.24779
G1 X154.8 Y139.47 E739.28005
G1 X28.03 Y12.7 E747.48364
G1 X27.325 Y12.7 E747.5159
G1 X154.8 Y140.175 E755.76511
G1 X154.8 Y140.88 E755.79737
G1 X26.62 Y12.7 E764.09221
G1 X25.915 Y12.7 E764.12447
G1 X154.8 Y141.585 E772.46492
G1 X154.8 Y142.29 E772.49718
G1 X25.21 Y12.7 E780.88326
G1 X24.505 Y12.7 E780.91551
G1 X154.8 Y142.995 E789.34721
G1 X154.8 Y143.7 E789.37947
G1 X23.8 Y12.7 E797.85679
G1 X23.095 Y12.7 E797.88905
G1 X154.8 Y144.405 E806.41199
G1 X154.8 Y145.11 E806.44425
G1 X22.39 Y12.7 E815.0128
G1 X21.685 Y12.7 E815.04506
G1 X154.8 Y145.815 E823.65924
G1 X154.8 Y146.52 E823.6915
G1 X20.98 Y12.7 E832.3513
G1 X20.275 Y12.7 E832.38356
G1 X154.8 Y147.225 E841.08898
G1 X154.8 Y147.93 E841.12124
G1 X19.57 Y12.7 E849.87229
G1 X18.865 Y12.7 E849.90455
G1 X154.8 Y148.635 E858.70121
G1 X154.8 Y149.34 E858.73347
G1 X18.16 Y12.7 E867.57575
G1 X17.455 Y12.7 E867.60801
G1 X154.8 Y150.045 E876.49592
G1 X154.8 Y150.75 E876.52818
G1 X16.75 Y12.7 E885.4617
G1 X16.045 Y12.7 E885.49396
G1 X154.8 Y151.455 E894.47311
G1 X154.8 Y152.16 E894.50537
G1 X15.34 Y12.7 E903.53013
G1 X14.635 Y12.7 E903.56239
G1 X154.8 Y152.865 E912.63278
G1 X154.8 Y153.57 E912.66504
G1 X13.93 Y12.7 E921.78105
G1 X13.225 Y12.7 E921.81331
G1 X154.8 Y154.275 E930.97494
G1 X154.8 Y154.98 E931.0072
G1 X12.52 Y12.7 E940.21445
G1 X11.815 Y12.7 E940.24671
G1 X154.8 Y155.685 E949.49958
G1 X154.8 Y156.39 E949.53184
G1 X11.11 Y12.7 E958.83033
G1 X10.405 Y12.7 E958.86259
G1 X154.8 Y157.095 E968.2067
G1 X154.8 Y157.3 E968.21608
G1 X154.3 Y157.3 E968.23896
G1 X10.2 Y13.2 E977.56397
G1 X10.2 Y13.905 E977.59623
G1 X153.595 Y157.3 E986.87562
G1 X152.89 Y157.3 E986.90788
G1 X10.2 Y14.61 E996.14165
G1 X10.2 Y15.315 E996.17391
G1 X152.185 Y157.3 E1005.36206
G1 X151.48 Y157.3 E1005.39432
G1 X10.2 Y16.02 E1014.53685
G1 X10.2 Y16.725 E1014.56911
G1 X150.775 Y157.3 E1023.66602
G1 X150.07 Y157.3 E1023.69828
G1 X10.2 Y17.43 E1032.74956
G1 X10.2 Y18.135 E1032.78182
G1 X149.365 Y157.3 E1041.78749
G1 X148.66 Y157.3 E1041.81975
G1 X10.2 Y18.84 E1050.7798
G1 X10.2 Y19.545 E1050.81205
G1 X147.955 Y157.3 E1059.72648
G1 X147.25 Y157.3 E1059.75874
G1 X10.2 Y20.25 E1068.62754
G1 X10.2 Y20.955 E1068.6598
G1 X146.545 Y157.3 E1077.48298
G1 X145.84 Y157.3 E1077.51524
G1 X10.2 Y21.66 E1086.29281
G1 X10.2 Y22.365 E1086.32506
G1 X145.135 Y157.3 E1095.05701
G1 X144.43 Y157.3 E1095.08927
G1 X10.2 Y23.07 E1103.77559
G1 X10.2 Y23.775 E1103.80785
G1 X143.725 Y157.3 E1112.44855
G1 X143.02 Y157.3 E1112.4808
G1 X10.2 Y24.48 E1121.07588
G1 X10.2 Y25.185 E1121.10814
G1 X142.315 Y157.3 E1129.6576
G1 X141.61 Y157.3 E1129.68986
G1 X10.2 Y25.89 E1138.1937
G1 X10.2 Y26.595 E1138.22596
G1 X140.905 Y157.3 E1146.68417
