; generated by SuperSlicer 2.3.57 on 2022-07-23 at 07:01:58 UTC


;
;

;
;
; 

; external perimeters extrusion width = 0.45mm
; perimeters extrusion width = 0.45mm
; infill extrusion width = 0.60mm
; solid infill extrusion width = 0.50mm
; top infill extrusion width = 0.40mm
; first layer extrusion width = 0.55mm


M140 S110 ; set bed temperature
M104 S245 T0 ; set temperature
;TYPE:Custom
print_start EXT_TEMP=245 BED_TEMP=110
M107
G21 ; set units to millimeters
G90 ; use absolute coordinates
M82 ; use absolute distances for extrusion
G92 E0
T0
G92 E0
; 2021-09-23: 255C, 0.92 ext, Galaxy Black on Dragon HF w/0.4 nozzle and 0.45 width and 0.3mm layers; cube with 0.002 factor yielded 0.064 best setting (.06 --> .07 OK range)
; at 240C: 0.06
; at 255C: 0.064
; at 270C: 0.044

;2022-03-20  After nozzle change: 0.4 E3D nozzle @ 235C, 80 mm/s: 0.054 --> 0.06
;SET_PRESSURE_ADVANCE ADVANCE=0.06
; Still seems too much.  Testing a bit less.
SET_PRESSURE_ADVANCE ADVANCE=0.04
M109 S245 T0 ; set temperature and wait for it to be reached
M190 S110 ; set bed temperature and wait for it to be reached
;LAYER_CHANGE
;Z:0.24
;HEIGHT:0.24
G1 Z0.24 F12000
G1 E-1.25 F1800
M204 P2000
G1 Z0.38 F12000
G1 X82.5 Y162.175
G1 Z0.24
G1 E0 F1800
;TYPE:External perimeter
;WIDTH:0.55
G1 F2400
G1 X5.325 Y162.175 E3.5316
G1 X5.325 Y7.825 E10.59479
G1 X159.675 Y7.825 E17.65798
G1 X159.675 Y162.175 E24.72117
G1 X82.56 Y162.175 E28.25002
;WIPE_START
M204 P4000
G1 X82.3 Y161.829 F12000
;WIPE_END
;LAYER_CHANGE
;Z:0.44
;HEIGHT:0.2
G1 Z0.44 F12000
M104 S235 T0 ; set temperature
M140 S115 ; set bed temperature
G92 E0
G1 E-10 F1800
G1 Z0.58 F12000
; Filament-specific end gcode 
;END gcode for filament
T1
G92 E0
; 2021-09-23: 255C, 0.92 ext, Galaxy Black on Dragon HF w/0.4 nozzle and 0.45 width and 0.3mm layers; cube with 0.002 factor yielded 0.064 best setting (.06 --> .07 OK range)
; at 240C: 0.06
; at 255C: 0.064
; at 270C: 0.044

;2022-03-20  After nozzle change: 0.4 E3D nozzle @ 235C, 80 mm/s: 0.054 --> 0.06
;SET_PRESSURE_ADVANCE ADVANCE=0.06
; Still seems too much.  Testing a bit less.
SET_PRESSURE_ADVANCE ADVANCE=0.04
M204 P2000
G1 X82.5 Y162.375
G1 Z0.44
;WIDTH:0.45
G1 F7200
G1 X5.125 Y162.375 E2.40953
G1 X5.125 Y7.625 E7.22858
G1 X159.875 Y7.625 E12.04764
G1 X159.875 Y162.375 E16.86669
G1 X82.56 Y162.375 E19.27435
;WIPE_START
M204 P4000
G1 X82.3 Y162.029 F12000
;WIPE_END
;LAYER_CHANGE
;Z:0.64
;HEIGHT:0.2
G1 Z0.64 F12000
G92 E0
G1 E-10 F1800
G1 Z0.78 F12000
; Filament-specific end gcode 
;END gcode for filament
T0
G92 E0
; 2021-09-23: 255C, 0.92 ext, Galaxy Black on Dragon HF w/0.4 nozzle and 0.45 width and 0.3mm layers; cube with 0.002 factor yielded 0.064 best setting (.06 --> .07 OK range)
; at 240C: 0.06
; at 255C: 0.064
; at 270C: 0.044

;2022-03-20  After nozzle change: 0.4 E3D nozzle @ 235C, 80 mm/s: 0.054 --> 0.06
;SET_PRESSURE_ADVANCE ADVANCE=0.06
; Still seems too much.  Testing a bit less.
SET_PRESSURE_ADVANCE ADVANCE=0.04
M204 P2000
G1 X82.5 Y162.375
G1 Z0.64
G1 E10 F1800
G1 F7200
G1 X5.125 Y162.375 E12.40953
G1 X5.125 Y7.625 E17.22858
G1 X159.875 Y7.625 E22.04764
G1 X159.875 Y162.375 E26.86669
G1 X82.56 Y162.375 E29.27435
;WIPE_START
M204 P4000
G1 X82.3 Y162.029 F12000
;WIPE_END
M106 S127.5
;LAYER_CHANGE
;Z:0.84
;HEIGHT:0.2
G1 Z0.84 F12000
G92 E0
G1 E-10 F1800
G1 Z0.98 F12000
; Filament-specific end gcode 
;END gcode for filament
T1
G92 E0
; 2021-09-23: 255C, 0.92 ext, Galaxy Black on Dragon HF w/0.4 nozzle and 0.45 width and 0.3mm layers; cube with 0.002 factor yielded 0.064 best setting (.06 --> .07 OK range)
; at 240C: 0.06
; at 255C: 0.064
; at 270C: 0.044

;2022-03-20  After nozzle change: 0.4 E3D nozzle @ 235C, 80 mm/s: 0.054 --> 0.06
;SET_PRESSURE_ADVANCE ADVANCE=0.06
; Still seems too much.  Testing a bit less.
SET_PRESSURE_ADVANCE ADVANCE=0.04
M204 P2000
G1 X82.5 Y162.375
G1 Z0.84
G1 E10 F1800
G1 F7200
M106 S204
G1 X5.125 Y162.375 E12.40953
G1 X5.125 Y7.625 E17.22858
G1 X159.875 Y7.625 E22.04764
G1 X159.875 Y162.375 E26.86669
G1 X82.56 Y162.375 E29.27435
M106 S127.5
;WIPE_START
M204 P4000
G1 X82.3 Y162.029 F12000
;WIPE_END
G92 E0
G1 E-1.25 F1800
G1 Z0.98 F12000
M107
;TYPE:Custom
; Filament-specific end gcode 
;END gcode for filament
; Filament-specific end gcode 
;END gcode for filament
print_end    ;end script from macro
; filament used [mm] = 47.52, 38.55
; filament used [cm3] = 0.11, 0.09
; filament used [g] = 0.14, 0.12
; filament cost = 0.00, 0.00
; total filament used [g] = 0.26
; total filament cost = 0.01
; total layers count = 4
; estimated printing time (normal mode) = 35s

; allow_empty_layers = 0
; avoid_crossing_not_first_layer = 1
; avoid_crossing_perimeters = 0
; avoid_crossing_perimeters_max_detour = 0
; bed_custom_model = 
; bed_custom_texture = 
; bed_shape = 0x0,165x0,165x170,0x170
; bed_temperature = 115,115
; before_layer_gcode = 
; between_objects_gcode = 
; bottom_fill_pattern = monotonicgapfill
; bottom_solid_layers = 5
; bottom_solid_min_thickness = 0
; bridge_acceleration = 1500
; bridge_angle = 0
; bridge_fan_speed = 70,70
; bridge_flow_ratio = 100%
; bridge_internal_fan_speed = -1,-1
; bridge_overlap = 100%
; bridge_overlap_min = 80%
; bridge_speed = 40
; bridge_speed_internal = 150%
; bridged_infill_margin = 200%
; brim_ears = 0
; brim_ears_detection_length = 1
; brim_ears_max_angle = 125
; brim_ears_pattern = concentric
; brim_inside_holes = 0
; brim_offset = 0
; brim_width = 0
; brim_width_interior = 0
; chamber_temperature = 0,0
; clip_multipart_objects = 0
; color_change_gcode = M600
; complete_objects = 0
; complete_objects_one_brim = 0
; complete_objects_one_skirt = 0
; complete_objects_sort = object
; cooling = 1,1
; cooling_tube_length = 5
; cooling_tube_retraction = 91.5
; curve_smoothing_angle_concave = 0
; curve_smoothing_angle_convex = 0
; curve_smoothing_cutoff_dist = 2
; curve_smoothing_precision = 0
; default_acceleration = 4000
; default_filament_profile = ""
; default_print_profile = 
; deretract_speed = 0,0
; disable_fan_first_layers = 3,3
; dont_support_bridges = 1
; draft_shield = 0
; duplicate_distance = 6
; end_filament_gcode = "; Filament-specific end gcode \n;END gcode for filament\n";"; Filament-specific end gcode \n;END gcode for filament\n"
; end_gcode = print_end    ;end script from macro
; enforce_full_fill_volume = 1
; ensure_vertical_shell_thickness = 0
; exact_last_layer_height = 0
; external_infill_margin = 150%
; external_perimeter_cut_corners = 0%
; external_perimeter_extrusion_spacing = 
; external_perimeter_extrusion_width = 0
; external_perimeter_fan_speed = 80,80
; external_perimeter_overlap = 100%
; external_perimeter_speed = 120
; external_perimeters_first = 1
; external_perimeters_hole = 1
; external_perimeters_nothole = 1
; external_perimeters_vase = 0
; extra_loading_move = -2
; extra_perimeters = 1
; extra_perimeters_odd_layers = 0
; extra_perimeters_overhangs = 0
; extruder_clearance_height = 20
; extruder_clearance_radius = 20
; extruder_colour = #21FF06;#0000FF
; extruder_fan_offset = 0%,0%
; extruder_offset = 0x0,0x0
; extruder_temperature_offset = 0,0
; extrusion_axis = E
; extrusion_multiplier = 0.92,0.92
; extrusion_spacing = 
; extrusion_width = 0.45
; fan_always_on = 1,1
; fan_below_layer_time = 0,0
; fan_kickstart = 0
; fan_percentage = 0
; fan_speedup_overhangs = 1
; fan_speedup_time = 0
; feature_gcode = 
; filament_colour = #FF0000;#FF0000
; filament_cooling_final_speed = 3.4,3.4
; filament_cooling_initial_speed = 2.2,2.2
; filament_cooling_moves = 4,4
; filament_cooling_zone_pause = 0,0
; filament_cost = 25,25
; filament_custom_variables = ;
; filament_density = 1.25,1.25
; filament_diameter = 1.75,1.75
; filament_dip_extraction_speed = 70,70
; filament_dip_insertion_speed = 33,33
; filament_enable_toolchange_part_fan = 0,0
; filament_enable_toolchange_temp = 0,0
; filament_load_time = 0,0
; filament_loading_speed = 28,28
; filament_loading_speed_start = 3,3
; filament_max_overlap = 100%,100%
; filament_max_speed = 0,0
; filament_max_volumetric_speed = 0,0
; filament_max_wipe_tower_speed = 0,0
; filament_melt_zone_pause = 0,0
; filament_minimal_purge_on_wipe_tower = 15,15
; filament_notes = "Tuned 2020-12-27 to PA=0.08 on both 0.3 and 0.2 layers.";"Tuned 2020-12-27 to PA=0.08 on both 0.3 and 0.2 layers."
; filament_ramming_parameters = "120 100 6.6 6.8 7.2 7.6 7.9 8.2 8.7 9.4 9.9 10.0| 0.05 6.6 0.45 6.8 0.95 7.8 1.45 8.3 1.95 9.7 2.45 10 2.95 7.6 3.45 7.6 3.95 7.6 4.45 7.6 4.95 7.6";"120 100 6.6 6.8 7.2 7.6 7.9 8.2 8.7 9.4 9.9 10.0| 0.05 6.6 0.45 6.8 0.95 7.8 1.45 8.3 1.95 9.7 2.45 10 2.95 7.6 3.45 7.6 3.95 7.6 4.45 7.6 4.95 7.6"
; filament_settings_id = f0-abs-kvp;f0-abs-kvp
; filament_shrink = 100%,100%
; filament_skinnydip_distance = 31,31
; filament_soluble = 0,0
; filament_spool_weight = 0,0
; filament_toolchange_delay = 0,0
; filament_toolchange_part_fan_speed = 50,50
; filament_toolchange_temp = 200,200
; filament_type = PLA;PLA
; filament_unload_time = 0,0
; filament_unloading_speed = 90,90
; filament_unloading_speed_start = 100,100
; filament_use_fast_skinnydip = 0,0
; filament_use_skinnydip = 0,0
; filament_vendor = (Unknown)
; filament_wipe_advanced_pigment = 0.5,0.5
; fill_angle = 45
; fill_angle_increment = 0
; fill_density = 40%
; fill_pattern = gyroid
; fill_smooth_distribution = 10%
; fill_smooth_width = 50%
; fill_top_flow_ratio = 94%
; first_layer_acceleration = 2000
; first_layer_bed_temperature = 110,110
; first_layer_extrusion_spacing = 
; first_layer_extrusion_width = 0.55
; first_layer_flow_ratio = 100%
; first_layer_height = 0.24
; first_layer_infill_speed = 60
; first_layer_min_speed = 0
; first_layer_size_compensation = -0.15
; first_layer_size_compensation_layers = 1
; first_layer_speed = 40
; first_layer_temperature = 245,245
; full_fan_speed_layer = 0,0
; gap_fill = 1
; gap_fill_last = 0
; gap_fill_min_area = 100%
; gap_fill_overlap = 100%
; gap_fill_speed = 80
; gcode_comments = 0
; gcode_filename_illegal_char = 
; gcode_flavor = sprinter
; gcode_label_objects = 0
; gcode_precision_e = 5
; gcode_precision_xyz = 3
; high_current_on_filament_swap = 0
; hole_size_compensation = 0
; hole_size_threshold = 100
; hole_to_polyhole = 0
; hole_to_polyhole_threshold = 0.01
; hole_to_polyhole_twisted = 1
; host_type = octoprint
; infill_acceleration = 4000
; infill_anchor = 600%
; infill_anchor_max = 0
; infill_connection = connected
; infill_connection_bottom = connected
; infill_connection_solid = connected
; infill_connection_top = connected
; infill_dense = 0
; infill_dense_algo = autosmall
; infill_every_layers = 1
; infill_extruder = 1
; infill_extrusion_spacing = 
; infill_extrusion_width = 0.6
; infill_first = 0
; infill_only_where_needed = 0
; infill_overlap = 20%
; infill_speed = 150
; interface_shells = 0
; ironing = 0
; ironing_angle = -1
; ironing_flowrate = 15%
; ironing_spacing = 0.2
; ironing_speed = 15
; ironing_type = top
; layer_gcode = 
; layer_height = 0.2
; lift_min = 0
; machine_limits_usage = ignore
; machine_max_acceleration_e = 10000,5000
; machine_max_acceleration_extruding = 1500,1250
; machine_max_acceleration_retracting = 1500,1250
; machine_max_acceleration_travel = 1500,1250
; machine_max_acceleration_x = 9000,1000
; machine_max_acceleration_y = 9000,1000
; machine_max_acceleration_z = 500,200
; machine_max_feedrate_e = 120,120
; machine_max_feedrate_x = 500,200
; machine_max_feedrate_y = 500,200
; machine_max_feedrate_z = 12,12
; machine_max_jerk_e = 2.5,2.5
; machine_max_jerk_x = 10,10
; machine_max_jerk_y = 10,10
; machine_max_jerk_z = 0.2,0.4
; machine_min_extruding_rate = 0,0
; machine_min_travel_rate = 0,0
; max_fan_speed = 0,0
; max_gcode_per_second = 1500
; max_layer_height = 0,0
; max_print_height = 120
; max_print_speed = 250
; max_speed_reduction = 90%,90%
; max_volumetric_speed = 0
; milling_after_z = 200%
; milling_extra_size = 150%
; milling_post_process = 0
; milling_speed = 30
; milling_toolchange_end_gcode = 
; milling_toolchange_start_gcode = 
; min_fan_speed = 50,50
; min_layer_height = 0.07,0.07
; min_length = 0.035
; min_print_speed = 10,10
; min_skirt_length = 5
; min_width_top_surface = 200%
; model_precision = 0.0001
; no_perimeter_unsupported_algo = bridges
; notes = 
; nozzle_diameter = 0.4,0.4
; only_one_perimeter_first_layer = 0
; only_one_perimeter_top = 1
; only_one_perimeter_top_other_algo = 0
; only_retract_when_crossing_perimeters = 0
; ooze_prevention = 0
; output_filename_format = [input_filename_base].gcode
; over_bridge_flow_ratio = 100%
; overhangs_reverse = 0
; overhangs_reverse_threshold = 250%
; overhangs_speed = 100%
; overhangs_width = 75%
; overhangs_width_speed = 50%
; parking_pos_retraction = 92
; pause_print_gcode = M601
; perimeter_acceleration = 2000
; perimeter_bonding = 0%
; perimeter_extruder = 1
; perimeter_extrusion_spacing = 
; perimeter_extrusion_width = 0
; perimeter_loop = 0
; perimeter_loop_seam = rear
; perimeter_overlap = 100%
; perimeter_round_corners = 0
; perimeter_speed = 150
; perimeters = 4
; physical_printer_settings_id = f0
; post_process = 
; print_custom_variables = 
; print_extrusion_multiplier = 100%
; print_retract_length = -1
; print_retract_lift = -1
; print_settings_id = v0-abs
; print_temperature = 0
; printer_custom_variables = 
; printer_model = 
; printer_notes = 
; printer_settings_id = dz
; printer_technology = FFF
; printer_variant = 
; printer_vendor = 
; raft_layers = 0
; remaining_times = 0
; remaining_times_type = m73
; resolution = 0
; resolution_internal = 0.2
; retract_before_travel = 2,2
; retract_before_wipe = 0%,0%
; retract_layer_change = 0,0
; retract_length = 1.25,1.25
; retract_length_toolchange = 10,10
; retract_lift = 0.14,0.14
; retract_lift_above = 0,0
; retract_lift_below = 0,0
; retract_lift_first_layer = 0,0
; retract_lift_top = "All surfaces";"All surfaces"
; retract_restart_extra = 0,0
; retract_restart_extra_toolchange = 0,0
; retract_speed = 30,30
; seam_angle_cost = 100%
; seam_gap = 15%,15%
; seam_position = rear
; seam_travel_cost = 100%
; silent_mode = 1
; single_extruder_multi_material = 0
; single_extruder_multi_material_priming = 1
; skirt_brim = 0
; skirt_distance = 1
; skirt_distance_from_brim = 1
; skirt_extrusion_width = 0
; skirt_height = 1
; skirts = 0
; slice_closing_radius = 0.049
; slowdown_below_layer_time = 4,4
; small_perimeter_max_length = 10
; small_perimeter_min_length = 6
; small_perimeter_speed = 40
; solid_fill_pattern = monotonic
; solid_infill_below_area = 6
; solid_infill_every_layers = 0
; solid_infill_extruder = 1
; solid_infill_extrusion_spacing = 
; solid_infill_extrusion_width = 0.5
; solid_infill_speed = 150
; solid_over_perimeters = 2
; spiral_vase = 0
; standby_temperature_delta = -5
; start_filament_gcode = "; 2021-09-23: 255C, 0.92 ext, Galaxy Black on Dragon HF w/0.4 nozzle and 0.45 width and 0.3mm layers; cube with 0.002 factor yielded 0.064 best setting (.06 --> .07 OK range)\n; at 240C: 0.06\n; at 255C: 0.064\n; at 270C: 0.044\n\n;2022-03-20  After nozzle change: 0.4 E3D nozzle @ 235C, 80 mm/s: 0.054 --> 0.06\n;SET_PRESSURE_ADVANCE ADVANCE=0.06\n; Still seems too much.  Testing a bit less.\nSET_PRESSURE_ADVANCE ADVANCE=0.04";"; 2021-09-23: 255C, 0.92 ext, Galaxy Black on Dragon HF w/0.4 nozzle and 0.45 width and 0.3mm layers; cube with 0.002 factor yielded 0.064 best setting (.06 --> .07 OK range)\n; at 240C: 0.06\n; at 255C: 0.064\n; at 270C: 0.044\n\n;2022-03-20  After nozzle change: 0.4 E3D nozzle @ 235C, 80 mm/s: 0.054 --> 0.06\n;SET_PRESSURE_ADVANCE ADVANCE=0.06\n; Still seems too much.  Testing a bit less.\nSET_PRESSURE_ADVANCE ADVANCE=0.04"
; start_gcode = print_start EXT_TEMP=[first_layer_temperature] BED_TEMP=[first_layer_bed_temperature]
; start_gcode_manual = 0
; support_material = 0
; support_material_angle = 0
; support_material_auto = 0
; support_material_buildplate_only = 0
; support_material_contact_distance_bottom = 0.2
; support_material_contact_distance_top = 0.2
; support_material_contact_distance_type = plane
; support_material_enforce_layers = 0
; support_material_extruder = 1
