; generated by SuperSlicer 2.3.57 on 2022-07-23 at 07:44:37 UTC


;
;

;
;
; 

; external perimeters extrusion width = 0.45mm
; perimeters extrusion width = 0.45mm
; infill extrusion width = 0.60mm
; solid infill extrusion width = 0.50mm
; top infill extrusion width = 0.40mm
; first layer extrusion width = 0.55mm


M140 S110 ; set bed temperature
;TYPE:Custom
print_start EXT_TEMP=245 BED_TEMP=110
M107
G21 ; set units to millimeters
G90 ; use absolute coordinates
M82 ; use absolute distances for extrusion
G92 E0
; 2021-09-23: 255C, 0.92 ext, Galaxy Black on Dragon HF w/0.4 nozzle and 0.45 width and 0.3mm layers; cube with 0.002 factor yielded 0.064 best setting (.06 --> .07 OK range)
; at 240C: 0.06
; at 255C: 0.064
; at 270C: 0.044

;2022-03-20  After nozzle change: 0.4 E3D nozzle @ 235C, 80 mm/s: 0.054 --> 0.06
;SET_PRESSURE_ADVANCE ADVANCE=0.06
; Still seems too much.  Testing a bit less.
SET_PRESSURE_ADVANCE ADVANCE=0.04
M109 S245 ; set temperature and wait for it to be reached
M190 S110 ; set bed temperature and wait for it to be reached
;LAYER_CHANGE
;Z:0.24
;HEIGHT:0.24
G1 Z0.24 F12000
G1 E-1.25 F1800
M204 P2000
G1 Z0.38 F12000
G1 X82.5 Y162.175
G1 Z0.24
G1 E0 F1800
;TYPE:External perimeter
;WIDTH:0.55
G1 F2400
G1 X5.325 Y162.175 E3.5316
G1 X5.325 Y7.825 E10.59479
G1 X159.675 Y7.825 E17.65798
G1 X159.675 Y162.175 E24.72117
G1 X82.56 Y162.175 E28.25002
;WIPE_START
M204 P4000
G1 X82.3 Y161.829 F12000
;WIPE_END
G92 E0
G1 E-1.25 F1800
M204 P2000
G1 Z0.38 F12000
G1 X158.493 Y7.999
G1 Z0.24
G1 E0 F1800
;TYPE:Solid infill
;WIDTH:0.549975
G1 F3600
G1 X159.286 Y8.793 E0.05134
G1 X159.286 Y9.498 E0.0836
G1 X158.002 Y8.214 E0.16669
G1 X157.297 Y8.214 E0.19895
G1 X159.286 Y10.203 E0.32766
G1 X159.286 Y10.908 E0.35991
G1 X156.592 Y8.214 E0.53425
G1 X155.887 Y8.214 E0.5665
G1 X159.286 Y11.613 E0.78646
G1 X159.286 Y12.318 E0.81872
G1 X155.182 Y8.214 E1.08429
G1 X154.477 Y8.214 E1.11655
G1 X159.286 Y13.023 E1.42774
G1 X159.286 Y13.728 E1.46
G1 X153.772 Y8.214 E1.81682
G1 X153.067 Y8.214 E1.84907
G1 X159.286 Y14.433 E2.25151
G1 X159.286 Y15.138 E2.28377
G1 X152.362 Y8.214 E2.73183
G1 X151.657 Y8.214 E2.76409
G1 X159.286 Y15.843 E3.25776
G1 X159.286 Y16.548 E3.29002
G1 X150.952 Y8.214 E3.82932
G1 X150.247 Y8.214 E3.86158
G1 X159.286 Y17.253 E4.4465
G1 X159.286 Y17.958 E4.47876
G1 X149.542 Y8.214 E5.1093
G1 X148.838 Y8.214 E5.14156
G1 X159.286 Y18.662 E5.81773
G1 X159.286 Y19.367 E5.84998
G1 X148.133 Y8.214 E6.57177
G1 X147.428 Y8.214 E6.60403
G1 X159.286 Y20.072 E7.37143
G1 X159.286 Y20.777 E7.40369
G1 X146.723 Y8.214 E8.21672
G1 X146.018 Y8.214 E8.24898
G1 X159.286 Y21.482 E9.10762
G1 X159.286 Y22.187 E9.13988
G1 X145.313 Y8.214 E10.04415
G1 X144.608 Y8.214 E10.07641
G1 X159.286 Y22.892 E11.0263
G1 X159.286 Y23.597 E11.05856
G1 X143.903 Y8.214 E12.05407
G1 X143.198 Y8.214 E12.08633
G1 X159.286 Y24.302 E13.12746
G1 X159.286 Y25.007 E13.15972
G1 X142.493 Y8.214 E14.24647
G1 X141.788 Y8.214 E14.27873
G1 X159.286 Y25.712 E15.4111
G1 X159.286 Y26.417 E15.44336
G1 X141.083 Y8.214 E16.62136
G1 X140.378 Y8.214 E16.65362
G1 X159.286 Y27.122 E17.87723
G1 X159.286 Y27.827 E17.90949
G1 X139.673 Y8.214 E19.17873
G1 X138.968 Y8.214 E19.21099
G1 X159.286 Y28.532 E20.52585
G1 X159.286 Y29.237 E20.55811
G1 X138.263 Y8.214 E21.91858
G1 X137.558 Y8.214 E21.95084
G1 X159.286 Y29.942 E23.35694
G1 X159.286 Y30.647 E23.3892
G1 X136.853 Y8.214 E24.84092
G1 X136.148 Y8.214 E24.87318
G1 X159.286 Y31.352 E26.37053
G1 X159.286 Y32.057 E26.40278
G1 X135.443 Y8.214 E27.94575
G1 X134.738 Y8.214 E27.97801
G1 X159.286 Y32.762 E29.56659
G1 X159.286 Y33.467 E29.59885
G1 X134.033 Y8.214 E31.23306
G1 X133.328 Y8.214 E31.26532
G1 X159.286 Y34.172 E32.94514
G1 X159.286 Y34.877 E32.9774
G1 X132.623 Y8.214 E34.70285
G1 X131.918 Y8.214 E34.73511
G1 X159.286 Y35.582 E36.50618
G1 X159.286 Y36.287 E36.53844
G1 X131.213 Y8.214 E38.35513
G1 X130.508 Y8.214 E38.38739
G1 X159.286 Y36.992 E40.2497
G1 X159.286 Y37.697 E40.28196
G1 X129.803 Y8.214 E42.18989
G1 X129.098 Y8.214 E42.22215
G1 X159.286 Y38.402 E44.1757
G1 X159.286 Y39.107 E44.20796
G1 X128.393 Y8.214 E46.20713
G1 X127.688 Y8.214 E46.23939
G1 X159.286 Y39.812 E48.28419
G1 X159.286 Y40.517 E48.31645
G1 X126.983 Y8.214 E50.40687
G1 X126.278 Y8.214 E50.43912
G1 X159.286 Y41.222 E52.57516
G1 X159.286 Y41.927 E52.60742
G1 X125.573 Y8.214 E54.78908
G1 X124.868 Y8.214 E54.82134
G1 X159.286 Y42.632 E57.04862
G1 X159.286 Y43.337 E57.08088
G1 X124.163 Y8.214 E59.35378
G1 X123.458 Y8.214 E59.38604
G1 X159.286 Y44.042 E61.70456
G1 X159.286 Y44.747 E61.73682
G1 X122.753 Y8.214 E64.10096
G1 X122.048 Y8.214 E64.13322
G1 X159.286 Y45.452 E66.54299
G1 X159.286 Y46.157 E66.57524
G1 X121.343 Y8.214 E69.03063
G1 X120.638 Y8.214 E69.06289
G1 X159.286 Y46.862 E71.5639
G1 X159.286 Y47.567 E71.59615
G1 X119.933 Y8.214 E74.14278
G1 X119.228 Y8.214 E74.17504
G1 X159.286 Y48.272 E76.76729
G1 X159.286 Y48.977 E76.79955
G1 X118.523 Y8.214 E79.43742
G1 X117.818 Y8.214 E79.46968
G1 X159.286 Y49.682 E82.15317
G1 X159.286 Y50.387 E82.18543
G1 X117.113 Y8.214 E84.91454
G1 X116.409 Y8.214 E84.9468
G1 X159.286 Y51.091 E87.72153
G1 X159.286 Y51.796 E87.75379
G1 X115.704 Y8.214 E90.57415
G1 X114.999 Y8.214 E90.6064
G1 X159.286 Y52.501 E93.47238
G1 X159.286 Y53.206 E93.50464
G1 X114.294 Y8.214 E96.41624
G1 X113.589 Y8.214 E96.44849
G1 X159.286 Y53.911 E99.40571
G1 X159.286 Y54.616 E99.43797
G1 X112.884 Y8.214 E102.44081
G1 X112.179 Y8.214 E102.47307
G1 X159.286 Y55.321 E105.52153
G1 X159.286 Y56.026 E105.55379
G1 X111.474 Y8.214 E108.64787
G1 X110.769 Y8.214 E108.68013
G1 X159.286 Y56.731 E111.81983
G1 X159.286 Y57.436 E111.85209
G1 X110.064 Y8.214 E115.03741
G1 X109.359 Y8.214 E115.06967
G1 X159.286 Y58.141 E118.30061
G1 X159.286 Y58.846 E118.33287
G1 X108.654 Y8.214 E121.60944
G1 X107.949 Y8.214 E121.6417
G1 X159.286 Y59.551 E124.96388
G1 X159.286 Y60.256 E124.99614
G1 X107.244 Y8.214 E128.36395
G1 X106.539 Y8.214 E128.39621
G1 X159.286 Y60.961 E131.80964
G1 X159.286 Y61.666 E131.8419
G1 X105.834 Y8.214 E135.30095
G1 X105.129 Y8.214 E135.3332
G1 X159.286 Y62.371 E138.83788
G1 X159.286 Y63.076 E138.87013
G1 X104.424 Y8.214 E142.42043
G1 X103.719 Y8.214 E142.45268
G1 X159.286 Y63.781 E146.0486
G1 X159.286 Y64.486 E146.08086
G1 X103.014 Y8.214 E149.72239
G1 X102.309 Y8.214 E149.75465
G1 X159.286 Y65.191 E153.4418
G1 X159.286 Y65.896 E153.47406
G1 X101.604 Y8.214 E157.20684
G1 X100.899 Y8.214 E157.2391
G1 X159.286 Y66.601 E161.0175
G1 X159.286 Y67.306 E161.04975
G1 X100.194 Y8.214 E164.87377
G1 X99.489 Y8.214 E164.90603
G1 X159.286 Y68.011 E168.77567
G1 X159.286 Y68.716 E168.80793
G1 X98.784 Y8.214 E172.72319
G1 X98.079 Y8.214 E172.75545
G1 X159.286 Y69.421 E176.71633
G1 X159.286 Y70.126 E176.74859
G1 X97.374 Y8.214 E180.75509
G1 X96.669 Y8.214 E180.78735
G1 X159.286 Y70.831 E184.83948
G1 X159.286 Y71.536 E184.87173
G1 X95.964 Y8.214 E188.96948
G1 X95.259 Y8.214 E189.00174
G1 X159.286 Y72.241 E193.1451
G1 X159.286 Y72.946 E193.17736
G1 X94.554 Y8.214 E197.36635
G1 X93.849 Y8.214 E197.39861
G1 X159.286 Y73.651 E201.63322
G1 X159.286 Y74.356 E201.66548
G1 X93.144 Y8.214 E205.94571
G1 X92.439 Y8.214 E205.97796
G1 X159.286 Y75.061 E210.30382
G1 X159.286 Y75.766 E210.33607
G1 X91.734 Y8.214 E214.70755
G1 X91.029 Y8.214 E214.7398
G1 X159.286 Y76.471 E219.1569
G1 X159.286 Y77.176 E219.18916
G1 X90.324 Y8.214 E223.65187
G1 X89.619 Y8.214 E223.68413
G1 X159.286 Y77.881 E228.19246
G1 X159.286 Y78.586 E228.22472
G1 X88.914 Y8.214 E232.77868
G1 X88.209 Y8.214 E232.81094
G1 X159.286 Y79.291 E237.41051
G1 X159.286 Y79.996 E237.44277
G1 X87.504 Y8.214 E242.08797
G1 X86.799 Y8.214 E242.12023
G1 X159.286 Y80.701 E246.81105
G1 X159.286 Y81.406 E246.84331
G1 X86.094 Y8.214 E251.57975
G1 X85.389 Y8.214 E251.61201
G1 X159.286 Y82.111 E256.39407
G1 X159.286 Y82.816 E256.42633
G1 X84.684 Y8.214 E261.25401
G1 X83.98 Y8.214 E261.28627
G1 X159.286 Y83.52 E266.15957
G1 X159.286 Y84.225 E266.19183
G1 X83.275 Y8.214 E271.11076
G1 X82.57 Y8.214 E271.14301
G1 X159.286 Y84.93 E276.10756
G1 X159.286 Y85.635 E276.13982
G1 X81.865 Y8.214 E281.14999
G1 X81.16 Y8.214 E281.18224
G1 X159.286 Y86.34 E286.23803
G1 X159.286 Y87.045 E286.27029
G1 X80.455 Y8.214 E291.3717
G1 X79.75 Y8.214 E291.40396
G1 X159.286 Y87.75 E296.55099
G1 X159.286 Y88.455 E296.58325
G1 X79.045 Y8.214 E301.7759
G1 X78.34 Y8.214 E301.80816
G1 X159.286 Y89.16 E307.04643
G1 X159.286 Y89.865 E307.07869
G1 X77.635 Y8.214 E312.36258
G1 X76.93 Y8.214 E312.39484
G1 X159.286 Y90.57 E317.72436
G1 X159.286 Y91.275 E317.75661
G1 X76.225 Y8.214 E323.13175
G1 X75.52 Y8.214 E323.16401
G1 X159.286 Y91.98 E328.58477
G1 X159.286 Y92.685 E328.61702
G1 X74.815 Y8.214 E334.0834
G1 X74.11 Y8.214 E334.11566
G1 X159.286 Y93.39 E339.62766
G1 X159.286 Y94.095 E339.65992
G1 X73.405 Y8.214 E345.21754
G1 X72.7 Y8.214 E345.2498
G1 X159.286 Y94.8 E350.85304
G1 X159.286 Y95.505 E350.8853
G1 X71.995 Y8.214 E356.53416
G1 X71.29 Y8.214 E356.56642
G1 X159.286 Y96.21 E362.2609
G1 X159.286 Y96.915 E362.29316
G1 X70.585 Y8.214 E368.03327
G1 X69.88 Y8.214 E368.06552
G1 X159.286 Y97.62 E373.85125
G1 X159.286 Y98.325 E373.88351
G1 X69.175 Y8.214 E379.71485
G1 X68.47 Y8.214 E379.74711
G1 X159.286 Y99.03 E385.62408
G1 X159.286 Y99.735 E385.65634
G1 X67.765 Y8.214 E391.57893
G1 X67.06 Y8.214 E391.61119
G1 X159.286 Y100.44 E397.5794
G1 X159.286 Y101.145 E397.61166
G1 X66.355 Y8.214 E403.62549
G1 X65.65 Y8.214 E403.65775
G1 X159.286 Y101.85 E409.7172
G1 X159.286 Y102.555 E409.74946
G1 X64.945 Y8.214 E415.85453
G1 X64.24 Y8.214 E415.88679
G1 X159.286 Y103.26 E422.03748
G1 X159.286 Y103.965 E422.06974
G1 X63.535 Y8.214 E428.26606
G1 X62.83 Y8.214 E428.29832
G1 X159.286 Y104.67 E434.54025
G1 X159.286 Y105.375 E434.57251
G1 X62.125 Y8.214 E440.86007
G1 X61.42 Y8.214 E440.89233
G1 X159.286 Y106.08 E447.22551
G1 X159.286 Y106.785 E447.25776
G1 X60.715 Y8.214 E453.63656
G1 X60.01 Y8.214 E453.66882
G1 X159.286 Y107.49 E460.09324
G1 X159.286 Y108.195 E460.1255
G1 X59.305 Y8.214 E466.59554
G1 X58.6 Y8.214 E466.6278
G1 X159.286 Y108.9 E473.14347
G1 X159.286 Y109.605 E473.17572
G1 X57.895 Y8.214 E479.73701
G1 X57.19 Y8.214 E479.76927
G1 X159.286 Y110.31 E486.37617
G1 X159.286 Y111.015 E486.40843
G1 X56.485 Y8.214 E493.06096
G1 X55.78 Y8.214 E493.09322
G1 X159.286 Y111.72 E499.79136
G1 X159.286 Y112.425 E499.82362
G1 X55.075 Y8.214 E506.56739
G1 X54.37 Y8.214 E506.59965
G1 X159.286 Y113.13 E513.38904
G1 X159.286 Y113.835 E513.4213
G1 X53.665 Y8.214 E520.25631
G1 X52.96 Y8.214 E520.28857
G1 X159.286 Y114.54 E527.1692
G1 X159.286 Y115.245 E527.20146
G1 X52.255 Y8.214 E534.12771
G1 X51.55 Y8.214 E534.15997
G1 X159.286 Y115.95 E541.13184
G1 X159.286 Y116.654 E541.1641
G1 X50.846 Y8.214 E548.1816
G1 X50.141 Y8.214 E548.21386
G1 X159.286 Y117.359 E555.27697
G1 X159.286 Y118.064 E555.30923
G1 X49.436 Y8.214 E562.41797
G1 X48.731 Y8.214 E562.45023
G1 X159.286 Y118.769 E569.60458
G1 X159.286 Y119.474 E569.63684
G1 X48.026 Y8.214 E576.83682
G1 X47.321 Y8.214 E576.86908
G1 X159.286 Y120.179 E584.11468
G1 X159.286 Y120.884 E584.14694
G1 X46.616 Y8.214 E591.43816
G1 X45.911 Y8.214 E591.47042
G1 X159.286 Y121.589 E598.80726
G1 X159.286 Y122.294 E598.83952
G1 X45.206 Y8.214 E606.22199
G1 X44.501 Y8.214 E606.25425
G1 X159.286 Y122.999 E613.68233
G1 X159.286 Y123.704 E613.71459
G1 X43.796 Y8.214 E621.18829
G1 X43.091 Y8.214 E621.22055
G1 X159.286 Y124.409 E628.73988
G1 X159.286 Y125.114 E628.77214
G1 X42.386 Y8.214 E636.33709
G1 X41.681 Y8.214 E636.36935
G1 X159.286 Y125.819 E643.97991
G1 X159.286 Y126.524 E644.01217
G1 X40.976 Y8.214 E651.66836
G1 X40.271 Y8.214 E651.70062
G1 X159.286 Y127.229 E659.40243
G1 X159.286 Y127.934 E659.43469
G1 X39.566 Y8.214 E667.18213
G1 X38.861 Y8.214 E667.21438
G1 X159.286 Y128.639 E675.00744
G1 X159.286 Y129.344 E675.0397
G1 X38.156 Y8.214 E682.87837
G1 X37.451 Y8.214 E682.91063
G1 X159.286 Y130.049 E690.79493
G1 X159.286 Y130.754 E690.82718
G1 X36.746 Y8.214 E698.7571
G1 X36.041 Y8.214 E698.78936
G1 X159.286 Y131.459 E706.7649
G1 X159.286 Y132.164 E706.79716
G1 X35.336 Y8.214 E714.81832
G1 X34.631 Y8.214 E714.85057
G1 X159.286 Y132.869 E722.91735
G1 X159.286 Y133.574 E722.94961
G1 X33.926 Y8.214 E731.06201
G1 X33.221 Y8.214 E731.09427
G1 X159.286 Y134.279 E739.2523
G1 X159.286 Y134.984 E739.28455
G1 X32.516 Y8.214 E747.4882
G1 X31.811 Y8.214 E747.52046
G1 X159.286 Y135.689 E755.76972
G1 X159.286 Y136.394 E755.80198
G1 X31.106 Y8.214 E764.09686
G1 X30.401 Y8.214 E764.12912
G1 X159.286 Y137.099 E772.46963
G1 X159.286 Y137.804 E772.50189
G1 X29.696 Y8.214 E780.88802
G1 X28.991 Y8.214 E780.92028
G1 X159.286 Y138.509 E789.35202
G1 X159.286 Y139.214 E789.38428
G1 X28.286 Y8.214 E797.86165
G1 X27.581 Y8.214 E797.89391
G1 X159.286 Y139.919 E806.4169
G1 X159.286 Y140.624 E806.44916
G1 X26.876 Y8.214 E815.01777
G1 X26.171 Y8.214 E815.05003
G1 X159.286 Y141.329 E823.66427
G1 X159.286 Y142.034 E823.69652
G1 X25.466 Y8.214 E832.35638
G1 X24.761 Y8.214 E832.38864
G1 X159.286 Y142.739 E841.09411
G1 X159.286 Y143.444 E841.12637
G1 X24.056 Y8.214 E849.87747
G1 X23.351 Y8.214 E849.90973
G1 X159.286 Y144.149 E858.70644
G1 X159.286 Y144.854 E858.7387
G1 X22.646 Y8.214 E867.58104
G1 X21.941 Y8.214 E867.6133
G1 X159.286 Y145.559 E876.50126
G1 X159.286 Y146.264 E876.53352
G1 X21.236 Y8.214 E885.4671
G1 X20.531 Y8.214 E885.49936
G1 X159.286 Y146.969 E894.47856
G1 X159.286 Y147.674 E894.51082
G1 X19.826 Y8.214 E903.53564
G1 X19.121 Y8.214 E903.5679
G1 X159.286 Y148.379 E912.63834
G1 X159.286 Y149.083 E912.6706
G1 X18.417 Y8.214 E921.78667
G1 X17.712 Y8.214 E921.81893
G1 X159.286 Y149.788 E930.98061
G1 X159.286 Y150.493 E931.01287
G1 X17.007 Y8.214 E940.22018
G1 X16.302 Y8.214 E940.25244
G1 X159.286 Y151.198 E949.50537
G1 X159.286 Y151.903 E949.53763
G1 X15.597 Y8.214 E958.83618
G1 X14.892 Y8.214 E958.86843
G1 X159.286 Y152.608 E968.2126
G1 X159.286 Y153.313 E968.24486
G1 X14.187 Y8.214 E977.63466
G1 X13.482 Y8.214 E977.66691
G1 X159.286 Y154.018 E987.10233
G1 X159.286 Y154.723 E987.13459
G1 X12.777 Y8.214 E996.61562
G1 X12.072 Y8.214 E996.64788
G1 X159.286 Y155.428 E1006.17453
G1 X159.286 Y156.133 E1006.20679
G1 X11.367 Y8.214 E1015.77907
G1 X10.662 Y8.214 E1015.81133
G1 X159.286 Y156.838 E1025.42922
G1 X159.286 Y157.543 E1025.46148
G1 X9.957 Y8.214 E1035.125
G1 X9.252 Y8.214 E1035.15726
G1 X159.286 Y158.248 E1044.8664
G1 X159.286 Y158.953 E1044.89866
G1 X8.547 Y8.214 E1054.65342
G1 X7.842 Y8.214 E1054.68568
G1 X159.286 Y159.658 E1064.48606
G1 X159.286 Y160.363 E1064.51832
G1 X7.137 Y8.214 E1074.36432
G1 X6.432 Y8.214 E1074.39658
G1 X159.286 Y161.068 E1084.2882
G1 X159.286 Y161.773 E1084.32046
G1 X5.727 Y8.214 E1094.25771
G1 X5.714 Y8.214 E1094.25831
G1 X5.714 Y8.906 E1094.28997
G1 X158.594 Y161.786 E1104.18328
G1 X157.889 Y161.786 E1104.21554
G1 X5.714 Y9.611 E1114.06324
G1 X5.714 Y10.316 E1114.0955
G1 X157.184 Y161.786 E1123.89758
G1 X156.479 Y161.786 E1123.92983
G1 X5.714 Y11.021 E1133.68629
G1 X5.714 Y11.726 E1133.71855
G1 X155.774 Y161.786 E1143.42938
G1 X155.069 Y161.786 E1143.46164
G1 X5.714 Y12.431 E1153.12686
G1 X5.714 Y13.136 E1153.15911
G1 X154.364 Y161.786 E1162.77871
G1 X153.659 Y161.786 E1162.81097
G1 X5.714 Y13.841 E1172.38494
G1 X5.714 Y14.546 E1172.41719
G1 X152.954 Y161.786 E1181.94554
G1 X152.25 Y161.786 E1181.9778
G1 X5.714 Y15.25 E1191.46053
G1 X5.714 Y15.955 E1191.49279
G1 X151.545 Y161.786 E1200.9299
G1 X150.84 Y161.786 E1200.96216
G1 X5.714 Y16.66 E1210.35364
G1 X5.714 Y17.365 E1210.3859
G1 X150.135 Y161.786 E1219.73177
G1 X149.43 Y161.786 E1219.76403
G1 X5.714 Y18.07 E1229.06427
G1 X5.714 Y18.775 E1229.09653
G1 X148.725 Y161.786 E1238.35115
G1 X148.02 Y161.786 E1238.38341
G1 X5.714 Y19.48 E1247.59241
G1 X5.714 Y20.185 E1247.62467
G1 X147.315 Y161.786 E1256.78805
G1 X146.61 Y161.786 E1256.82031
G1 X5.714 Y20.89 E1265.93807
G1 X5.714 Y21.595 E1265.97033
G1 X145.905 Y161.786 E1275.04247
G1 X145.2 Y161.786 E1275.07473
G1 X5.714 Y22.3 E1284.10125
G1 X5.714 Y23.005 E1284.13351
G1 X144.495 Y161.786 E1293.1144
G1 X143.79 Y161.786 E1293.14666
G1 X5.714 Y23.71 E1302.08194
G1 X5.714 Y24.415 E1302.1142
G1 X143.085 Y161.786 E1311.00385
