; generated by SuperSlicer 2.3.57 on 2022-07-23 at 07:43:40 UTC


;
;

;
;
; 

; external perimeters extrusion width = 0.45mm
; perimeters extrusion width = 0.45mm
; infill extrusion width = 0.60mm
; solid infill extrusion width = 0.50mm
; top infill extrusion width = 0.40mm
; first layer extrusion width = 0.55mm


M140 S110 ; set bed temperature
;TYPE:Custom
print_start EXT_TEMP=245 BED_TEMP=110
M107
G21 ; set units to millimeters
G90 ; use absolute coordinates
M82 ; use absolute distances for extrusion
G92 E0
; 2021-09-23: 255C, 0.92 ext, Galaxy Black on Dragon HF w/0.4 nozzle and 0.45 width and 0.3mm layers; cube with 0.002 factor yielded 0.064 best setting (.06 --> .07 OK range)
; at 240C: 0.06
; at 255C: 0.064
; at 270C: 0.044

;2022-03-20  After nozzle change: 0.4 E3D nozzle @ 235C, 80 mm/s: 0.054 --> 0.06
;SET_PRESSURE_ADVANCE ADVANCE=0.06
; Still seems too much.  Testing a bit less.
SET_PRESSURE_ADVANCE ADVANCE=0.04
M109 S245 ; set temperature and wait for it to be reached
M190 S110 ; set bed temperature and wait for it to be reached
;LAYER_CHANGE
;Z:0.24
;HEIGHT:0.24
G1 Z0.24 F12000
G1 E-1.25 F1800
M204 P2000
G1 Z0.38 F12000
G1 X82.5 Y162.175
G1 Z0.24
G1 E0 F1800
;TYPE:External perimeter
;WIDTH:0.55
G1 F2400
G1 X5.325 Y162.175 E3.5316
G1 X5.325 Y7.825 E10.59479
G1 X159.675 Y7.825 E17.65798
G1 X159.675 Y162.175 E24.72117
G1 X82.56 Y162.175 E28.25002
;WIPE_START
M204 P4000
G1 X82.3 Y161.829 F12000
;WIPE_END
G92 E0
G1 E-1.25 F1800
M204 P2000
G1 Z0.38 F12000
G1 X159.276 Y7.999
G1 Z0.24
G1 E0 F1800
;TYPE:Solid infill
;WIDTH:0.550093
G1 F3600
G1 X159.276 Y161.786 E7.03861
G1 X158.778 Y161.786 E7.06143
G1 X158.778 Y8.214 E14.09023
G1 X158.279 Y8.214 E14.11304
G1 X158.279 Y161.786 E21.14184
G1 X157.781 Y161.786 E21.16466
G1 X157.781 Y8.214 E28.19346
G1 X157.282 Y8.214 E28.21627
G1 X157.282 Y161.786 E35.24507
G1 X156.784 Y161.786 E35.26789
G1 X156.784 Y8.214 E42.29669
G1 X156.285 Y8.214 E42.3195
G1 X156.285 Y161.786 E49.3483
G1 X155.787 Y161.786 E49.37112
G1 X155.787 Y8.214 E56.39992
G1 X155.288 Y8.214 E56.42273
G1 X155.288 Y161.786 E63.45153
G1 X154.79 Y161.786 E63.47435
G1 X154.79 Y8.214 E70.50315
G1 X154.291 Y8.214 E70.52596
G1 X154.291 Y161.786 E77.55476
G1 X153.793 Y161.786 E77.57758
G1 X153.793 Y8.214 E84.60638
G1 X153.294 Y8.214 E84.6292
G1 X153.294 Y161.786 E91.658
G1 X152.796 Y161.786 E91.68081
G1 X152.796 Y8.214 E98.70961
G1 X152.297 Y8.214 E98.73243
G1 X152.297 Y161.786 E105.76123
G1 X151.799 Y161.786 E105.78404
G1 X151.799 Y8.214 E112.81284
G1 X151.3 Y8.214 E112.83566
G1 X151.3 Y161.786 E119.86446
G1 X150.802 Y161.786 E119.88727
G1 X150.802 Y8.214 E126.91607
G1 X150.303 Y8.214 E126.93889
G1 X150.303 Y161.786 E133.96769
G1 X149.805 Y161.786 E133.9905
G1 X149.805 Y8.214 E141.0193
G1 X149.306 Y8.214 E141.04212
G1 X149.306 Y161.786 E148.07092
G1 X148.808 Y161.786 E148.09373
G1 X148.808 Y8.214 E155.12253
G1 X148.309 Y8.214 E155.14535
G1 X148.309 Y161.786 E162.17415
G1 X147.811 Y161.786 E162.19696
G1 X147.811 Y8.214 E169.22576
G1 X147.312 Y8.214 E169.24858
G1 X147.312 Y161.786 E176.27738
G1 X146.814 Y161.786 E176.3002
G1 X146.814 Y8.214 E183.329
G1 X146.315 Y8.214 E183.35181
G1 X146.315 Y161.786 E190.38061
G1 X145.817 Y161.786 E190.40343
G1 X145.817 Y8.214 E197.43223
G1 X145.318 Y8.214 E197.45504
G1 X145.318 Y161.786 E204.48384
G1 X144.82 Y161.786 E204.50666
G1 X144.82 Y8.214 E211.53546
G1 X144.321 Y8.214 E211.55827
G1 X144.321 Y161.786 E218.58707
G1 X143.823 Y161.786 E218.60989
G1 X143.823 Y8.214 E225.63869
G1 X143.324 Y8.214 E225.6615
G1 X143.324 Y161.786 E232.6903
G1 X142.826 Y161.786 E232.71312
G1 X142.826 Y8.214 E239.74192
G1 X142.327 Y8.214 E239.76473
G1 X142.327 Y161.786 E246.79353
G1 X141.829 Y161.786 E246.81635
G1 X141.829 Y8.214 E253.84515
G1 X141.33 Y8.214 E253.86797
G1 X141.33 Y161.786 E260.89676
G1 X140.832 Y161.786 E260.91958
G1 X140.832 Y8.214 E267.94838
G1 X140.333 Y8.214 E267.9712
G1 X140.333 Y161.786 E275
G1 X139.835 Y161.786 E275.02281
G1 X139.835 Y8.214 E282.05161
G1 X139.336 Y8.214 E282.07443
G1 X139.336 Y161.786 E289.10323
G1 X138.838 Y161.786 E289.12604
G1 X138.838 Y8.214 E296.15484
G1 X138.339 Y8.214 E296.17766
G1 X138.339 Y161.786 E303.20646
G1 X137.841 Y161.786 E303.22927
G1 X137.841 Y8.214 E310.25807
G1 X137.342 Y8.214 E310.28089
G1 X137.342 Y161.786 E317.30969
G1 X136.844 Y161.786 E317.3325
G1 X136.844 Y8.214 E324.3613
G1 X136.345 Y8.214 E324.38412
G1 X136.345 Y161.786 E331.41292
G1 X135.847 Y161.786 E331.43573
G1 X135.847 Y8.214 E338.46453
G1 X135.348 Y8.214 E338.48735
G1 X135.348 Y161.786 E345.51615
G1 X134.85 Y161.786 E345.53897
G1 X134.85 Y8.214 E352.56777
G1 X134.351 Y8.214 E352.59058
G1 X134.351 Y161.786 E359.61938
G1 X133.853 Y161.786 E359.6422
G1 X133.853 Y8.214 E366.671
G1 X133.354 Y8.214 E366.69381
G1 X133.354 Y161.786 E373.72261
G1 X132.856 Y161.786 E373.74543
G1 X132.856 Y8.214 E380.77423
G1 X132.357 Y8.214 E380.79704
G1 X132.357 Y161.786 E387.82584
G1 X131.859 Y161.786 E387.84866
G1 X131.859 Y8.214 E394.87746
G1 X131.36 Y8.214 E394.90027
G1 X131.36 Y161.786 E401.92907
G1 X130.862 Y161.786 E401.95189
G1 X130.862 Y8.214 E408.98069
G1 X130.363 Y8.214 E409.0035
G1 X130.363 Y161.786 E416.0323
G1 X129.865 Y161.786 E416.05512
G1 X129.865 Y8.214 E423.08392
G1 X129.366 Y8.214 E423.10673
G1 X129.366 Y161.786 E430.13553
G1 X128.868 Y161.786 E430.15835
G1 X128.868 Y8.214 E437.18715
G1 X128.369 Y8.214 E437.20997
G1 X128.369 Y161.786 E444.23877
G1 X127.871 Y161.786 E444.26158
G1 X127.871 Y8.214 E451.29038
G1 X127.373 Y8.214 E451.3132
G1 X127.372 Y161.786 E458.342
G1 X126.874 Y161.786 E458.36481
G1 X126.874 Y8.214 E465.39361
G1 X126.376 Y8.214 E465.41643
G1 X126.376 Y161.786 E472.44523
G1 X125.877 Y161.786 E472.46804
G1 X125.877 Y8.214 E479.49684
G1 X125.379 Y8.214 E479.51966
G1 X125.379 Y161.786 E486.54846
G1 X124.88 Y161.786 E486.57127
G1 X124.88 Y8.214 E493.60007
G1 X124.382 Y8.214 E493.62289
G1 X124.382 Y161.786 E500.65169
G1 X123.883 Y161.786 E500.6745
G1 X123.883 Y8.214 E507.7033
G1 X123.385 Y8.214 E507.72612
G1 X123.385 Y161.786 E514.75492
G1 X122.886 Y161.786 E514.77773
G1 X122.886 Y8.214 E521.80653
G1 X122.388 Y8.214 E521.82935
G1 X122.388 Y161.786 E528.85815
G1 X121.889 Y161.786 E528.88097
G1 X121.889 Y8.214 E535.90977
G1 X121.391 Y8.214 E535.93258
G1 X121.391 Y161.786 E542.96138
G1 X120.892 Y161.786 E542.9842
G1 X120.892 Y8.214 E550.013
G1 X120.394 Y8.214 E550.03581
G1 X120.394 Y161.786 E557.06461
G1 X119.895 Y161.786 E557.08743
G1 X119.895 Y8.214 E564.11623
G1 X119.397 Y8.214 E564.13904
G1 X119.397 Y161.786 E571.16784
G1 X118.898 Y161.786 E571.19066
G1 X118.898 Y8.214 E578.21946
G1 X118.4 Y8.214 E578.24227
G1 X118.4 Y161.786 E585.27107
G1 X117.901 Y161.786 E585.29389
G1 X117.901 Y8.214 E592.32269
G1 X117.403 Y8.214 E592.3455
G1 X117.403 Y161.786 E599.3743
G1 X116.904 Y161.786 E599.39712
G1 X116.904 Y8.214 E606.42592
G1 X116.406 Y8.214 E606.44873
G1 X116.406 Y161.786 E613.47753
G1 X115.907 Y161.786 E613.50035
G1 X115.907 Y8.214 E620.52915
G1 X115.409 Y8.214 E620.55197
G1 X115.409 Y161.786 E627.58077
G1 X114.91 Y161.786 E627.60358
G1 X114.91 Y8.214 E634.63238
G1 X114.412 Y8.214 E634.6552
G1 X114.412 Y161.786 E641.684
G1 X113.913 Y161.786 E641.70681
G1 X113.913 Y8.214 E648.73561
G1 X113.415 Y8.214 E648.75843
G1 X113.415 Y161.786 E655.78723
G1 X112.916 Y161.786 E655.81004
G1 X112.916 Y8.214 E662.83884
G1 X112.418 Y8.214 E662.86166
G1 X112.418 Y161.786 E669.89046
G1 X111.919 Y161.786 E669.91327
G1 X111.919 Y8.214 E676.94207
G1 X111.421 Y8.214 E676.96489
G1 X111.421 Y161.786 E683.99369
G1 X110.922 Y161.786 E684.0165
G1 X110.922 Y8.214 E691.0453
G1 X110.424 Y8.214 E691.06812
G1 X110.424 Y161.786 E698.09692
G1 X109.925 Y161.786 E698.11974
G1 X109.925 Y8.214 E705.14854
G1 X109.427 Y8.214 E705.17135
G1 X109.427 Y161.786 E712.20015
G1 X108.928 Y161.786 E712.22297
G1 X108.928 Y8.214 E719.25177
G1 X108.43 Y8.214 E719.27458
G1 X108.43 Y161.786 E726.30338
G1 X107.931 Y161.786 E726.3262
G1 X107.931 Y8.214 E733.355
G1 X107.433 Y8.214 E733.37781
G1 X107.433 Y161.786 E740.40661
G1 X106.934 Y161.786 E740.42943
G1 X106.934 Y8.214 E747.45823
G1 X106.436 Y8.214 E747.48104
G1 X106.436 Y161.786 E754.50984
G1 X105.937 Y161.786 E754.53266
G1 X105.937 Y8.214 E761.56146
G1 X105.439 Y8.214 E761.58427
G1 X105.439 Y161.786 E768.61307
G1 X104.94 Y161.786 E768.63589
G1 X104.94 Y8.214 E775.66469
G1 X104.442 Y8.214 E775.6875
G1 X104.442 Y161.786 E782.7163
G1 X103.943 Y161.786 E782.73912
G1 X103.943 Y8.214 E789.76792
G1 X103.445 Y8.214 E789.79074
G1 X103.445 Y161.786 E796.81954
G1 X102.946 Y161.786 E796.84235
G1 X102.946 Y8.214 E803.87115
G1 X102.448 Y8.214 E803.89397
G1 X102.448 Y161.786 E810.92277
G1 X101.949 Y161.786 E810.94558
G1 X101.949 Y8.214 E817.97438
G1 X101.451 Y8.214 E817.9972
G1 X101.451 Y161.786 E825.026
G1 X100.952 Y161.786 E825.04881
G1 X100.952 Y8.214 E832.07761
G1 X100.454 Y8.214 E832.10043
G1 X100.454 Y161.786 E839.12923
G1 X99.955 Y161.786 E839.15204
G1 X99.955 Y8.214 E846.18084
G1 X99.457 Y8.214 E846.20366
G1 X99.457 Y161.786 E853.23246
G1 X98.958 Y161.786 E853.25527
G1 X98.958 Y8.214 E860.28407
G1 X98.46 Y8.214 E860.30689
G1 X98.46 Y161.786 E867.33569
G1 X97.961 Y161.786 E867.3585
G1 X97.961 Y8.214 E874.3873
G1 X97.463 Y8.214 E874.41012
G1 X97.463 Y161.786 E881.43892
G1 X96.964 Y161.786 E881.46174
G1 X96.964 Y8.214 E888.49054
G1 X96.466 Y8.214 E888.51335
G1 X96.466 Y161.786 E895.54215
G1 X95.967 Y161.786 E895.56497
G1 X95.967 Y8.214 E902.59377
G1 X95.469 Y8.214 E902.61658
G1 X95.469 Y161.786 E909.64538
G1 X94.97 Y161.786 E909.6682
G1 X94.97 Y8.214 E916.697
G1 X94.472 Y8.214 E916.71981
G1 X94.472 Y161.786 E923.74861
G1 X93.973 Y161.786 E923.77143
G1 X93.973 Y8.214 E930.80023
G1 X93.475 Y8.214 E930.82304
G1 X93.475 Y161.786 E937.85184
G1 X92.976 Y161.786 E937.87466
G1 X92.976 Y8.214 E944.90346
G1 X92.478 Y8.214 E944.92627
G1 X92.478 Y161.786 E951.95507
G1 X91.979 Y161.786 E951.97789
G1 X91.979 Y8.214 E959.00669
G1 X91.481 Y8.214 E959.0295
G1 X91.481 Y161.786 E966.0583
G1 X90.982 Y161.786 E966.08112
G1 X90.982 Y8.214 E973.10992
G1 X90.484 Y8.214 E973.13274
G1 X90.484 Y161.786 E980.16154
G1 X89.985 Y161.786 E980.18435
G1 X89.985 Y8.214 E987.21315
G1 X89.487 Y8.214 E987.23597
G1 X89.487 Y161.786 E994.26477
G1 X88.988 Y161.786 E994.28758
G1 X88.988 Y8.214 E1001.31638
G1 X88.49 Y8.214 E1001.3392
G1 X88.49 Y161.786 E1008.368
G1 X87.991 Y161.786 E1008.39081
G1 X87.991 Y8.214 E1015.41961
G1 X87.493 Y8.214 E1015.44243
G1 X87.493 Y161.786 E1022.47123
G1 X86.994 Y161.786 E1022.49404
G1 X86.994 Y8.214 E1029.52284
G1 X86.496 Y8.214 E1029.54566
G1 X86.496 Y161.786 E1036.57446
G1 X85.997 Y161.786 E1036.59727
G1 X85.997 Y8.214 E1043.62607
G1 X85.499 Y8.214 E1043.64889
G1 X85.499 Y161.786 E1050.67769
G1 X85 Y161.786 E1050.70051
G1 X85 Y8.214 E1057.72931
G1 X84.502 Y8.214 E1057.75212
G1 X84.502 Y161.786 E1064.78092
G1 X84.003 Y161.786 E1064.80374
G1 X84.003 Y8.214 E1071.83254
G1 X83.505 Y8.214 E1071.85535
G1 X83.505 Y161.786 E1078.88415
G1 X83.006 Y161.786 E1078.90697
G1 X83.006 Y8.214 E1085.93577
G1 X82.508 Y8.214 E1085.95858
G1 X82.508 Y161.786 E1092.98738
G1 X82.009 Y161.786 E1093.0102
G1 X82.009 Y8.214 E1100.039
G1 X81.511 Y8.214 E1100.06181
G1 X81.511 Y161.786 E1107.09061
G1 X81.012 Y161.786 E1107.11343
G1 X81.012 Y8.214 E1114.14223
G1 X80.514 Y8.214 E1114.16504
G1 X80.514 Y161.786 E1121.19384
G1 X80.015 Y161.786 E1121.21666
G1 X80.015 Y8.214 E1128.24546
G1 X79.517 Y8.214 E1128.26827
G1 X79.517 Y161.786 E1135.29707
G1 X79.018 Y161.786 E1135.31989
G1 X79.018 Y8.214 E1142.34869
G1 X78.52 Y8.214 E1142.37151
G1 X78.52 Y161.786 E1149.40031
G1 X78.021 Y161.786 E1149.42312
G1 X78.022 Y8.214 E1156.45192
G1 X77.523 Y8.214 E1156.47474
G1 X77.523 Y161.786 E1163.50354
G1 X77.025 Y161.786 E1163.52635
G1 X77.025 Y8.214 E1170.55515
G1 X76.526 Y8.214 E1170.57797
G1 X76.526 Y161.786 E1177.60677
G1 X76.028 Y161.786 E1177.62958
G1 X76.028 Y8.214 E1184.65838
G1 X75.529 Y8.214 E1184.6812
G1 X75.529 Y161.786 E1191.71
G1 X75.031 Y161.786 E1191.73281
G1 X75.031 Y8.214 E1198.76161
G1 X74.532 Y8.214 E1198.78443
G1 X74.532 Y161.786 E1205.81323
G1 X74.034 Y161.786 E1205.83604
G1 X74.034 Y8.214 E1212.86484
G1 X73.535 Y8.214 E1212.88766
G1 X73.535 Y161.786 E1219.91646
G1 X73.037 Y161.786 E1219.93927
G1 X73.037 Y8.214 E1226.96807
G1 X72.538 Y8.214 E1226.99089
G1 X72.538 Y161.786 E1234.01969
G1 X72.04 Y161.786 E1234.04251
G1 X72.04 Y8.214 E1241.07131
G1 X71.541 Y8.214 E1241.09412
G1 X71.541 Y161.786 E1248.12292
G1 X71.043 Y161.786 E1248.14574
G1 X71.043 Y8.214 E1255.17454
G1 X70.544 Y8.214 E1255.19735
G1 X70.544 Y161.786 E1262.22615
G1 X70.046 Y161.786 E1262.24897
G1 X70.046 Y8.214 E1269.27777
G1 X69.547 Y8.214 E1269.30058
G1 X69.547 Y161.786 E1276.32938
G1 X69.049 Y161.786 E1276.3522
G1 X69.049 Y8.214 E1283.381
G1 X68.55 Y8.214 E1283.40381
G1 X68.55 Y161.786 E1290.43261
G1 X68.052 Y161.786 E1290.45543
G1 X68.052 Y8.214 E1297.48423
G1 X67.553 Y8.214 E1297.50704
G1 X67.553 Y161.786 E1304.53584
G1 X67.055 Y161.786 E1304.55866
G1 X67.055 Y8.214 E1311.58746
G1 X66.556 Y8.214 E1311.61027
G1 X66.556 Y161.786 E1318.63907
G1 X66.058 Y161.786 E1318.66189
G1 X66.058 Y8.214 E1325.69069
G1 X65.559 Y8.214 E1325.71351
G1 X65.559 Y161.786 E1332.74231
G1 X65.061 Y161.786 E1332.76512
G1 X65.061 Y8.214 E1339.79392
G1 X64.562 Y8.214 E1339.81674
G1 X64.562 Y161.786 E1346.84554
G1 X64.064 Y161.786 E1346.86835
G1 X64.064 Y8.214 E1353.89715
G1 X63.565 Y8.214 E1353.91997
G1 X63.565 Y161.786 E1360.94877
G1 X63.067 Y161.786 E1360.97158
G1 X63.067 Y8.214 E1368.00038
G1 X62.568 Y8.214 E1368.0232
G1 X62.568 Y161.786 E1375.052
G1 X62.07 Y161.786 E1375.07481
G1 X62.07 Y8.214 E1382.10361
G1 X61.571 Y8.214 E1382.12643
G1 X61.571 Y161.786 E1389.15523
G1 X61.073 Y161.786 E1389.17804
G1 X61.073 Y8.214 E1396.20684
G1 X60.574 Y8.214 E1396.22966
G1 X60.574 Y161.786 E1403.25846
G1 X60.076 Y161.786 E1403.28128
G1 X60.076 Y8.214 E1410.31008
G1 X59.577 Y8.214 E1410.33289
G1 X59.577 Y161.786 E1417.36169
G1 X59.079 Y161.786 E1417.38451
G1 X59.079 Y8.214 E1424.41331
G1 X58.58 Y8.214 E1424.43612
G1 X58.58 Y161.786 E1431.46492
G1 X58.082 Y161.786 E1431.48774
G1 X58.082 Y8.214 E1438.51654
G1 X57.583 Y8.214 E1438.53935
G1 X57.583 Y161.786 E1445.56815
G1 X57.085 Y161.786 E1445.59097
G1 X57.085 Y8.214 E1452.61977
G1 X56.586 Y8.214 E1452.64258
G1 X56.586 Y161.786 E1459.67138
G1 X56.088 Y161.786 E1459.6942
G1 X56.088 Y8.214 E1466.723
G1 X55.589 Y8.214 E1466.74581
G1 X55.589 Y161.786 E1473.77461
G1 X55.091 Y161.786 E1473.79743
G1 X55.091 Y8.214 E1480.82623
G1 X54.592 Y8.214 E1480.84904
G1 X54.592 Y161.786 E1487.87784
G1 X54.094 Y161.786 E1487.90066
G1 X54.094 Y8.214 E1494.92946
G1 X53.595 Y8.214 E1494.95228
G1 X53.595 Y161.786 E1501.98108
G1 X53.097 Y161.786 E1502.00389
G1 X53.097 Y8.214 E1509.03269
G1 X52.598 Y8.214 E1509.05551
G1 X52.598 Y161.786 E1516.08431
G1 X52.1 Y161.786 E1516.10712
G1 X52.1 Y8.214 E1523.13592
G1 X51.601 Y8.214 E1523.15874
G1 X51.601 Y161.786 E1530.18754
G1 X51.103 Y161.786 E1530.21035
G1 X51.103 Y8.214 E1537.23915
G1 X50.604 Y8.214 E1537.26197
G1 X50.604 Y161.786 E1544.29077
G1 X50.106 Y161.786 E1544.31358
G1 X50.106 Y8.214 E1551.34238
G1 X49.607 Y8.214 E1551.3652
G1 X49.607 Y161.786 E1558.394
G1 X49.109 Y161.786 E1558.41681
G1 X49.109 Y8.214 E1565.44561
G1 X48.61 Y8.214 E1565.46843
G1 X48.61 Y161.786 E1572.49723
G1 X48.112 Y161.786 E1572.52004
G1 X48.112 Y8.214 E1579.54884
G1 X47.613 Y8.214 E1579.57166
G1 X47.613 Y161.786 E1586.60046
G1 X47.115 Y161.786 E1586.62328
G1 X47.115 Y8.214 E1593.65208
G1 X46.616 Y8.214 E1593.67489
G1 X46.616 Y161.786 E1600.70369
G1 X46.118 Y161.786 E1600.72651
G1 X46.118 Y8.214 E1607.75531
G1 X45.619 Y8.214 E1607.77812
G1 X45.619 Y161.786 E1614.80692
G1 X45.121 Y161.786 E1614.82974
G1 X45.121 Y8.214 E1621.85854
G1 X44.622 Y8.214 E1621.88135
G1 X44.622 Y161.786 E1628.91015
G1 X44.124 Y161.786 E1628.93297
G1 X44.124 Y8.214 E1635.96177
G1 X43.625 Y8.214 E1635.98458
G1 X43.625 Y161.786 E1643.01338
G1 X43.127 Y161.786 E1643.0362
G1 X43.127 Y8.214 E1650.065
G1 X42.628 Y8.214 E1650.08781
G1 X42.628 Y161.786 E1657.11661
G1 X42.13 Y161.786 E1657.13943
G1 X42.13 Y8.214 E1664.16823
G1 X41.631 Y8.214 E1664.19104
